HDR_heatmap.cube
LUT_3D_SIZE 5
0.000000 0.000000 0.000000
0.000000 0.035294 0.203922
0.000000 0.074510 0.411765
0.000000 0.110784 0.618627
0.000000 0.227451 0.768627
0.000000 0.073529 0.405883
0.000000 0.108823 0.610784
0.000000 0.223529 0.764705
0.000000 0.374510 0.889216
0.000000 0.531372 0.996078
0.000000 0.219608 0.760784
0.000000 0.366666 0.884314
0.000000 0.525490 0.996078
0.000000 0.729411 0.950000
0.141176 0.972549 0.533333
0.000000 0.516666 0.996078
0.000000 0.713726 0.958823
0.126470 0.969607 0.552941
0.784314 0.938235 0.036275
0.989216 0.540196 0.008823
0.113725 0.968627 0.572549
0.754902 0.948039 0.041177
0.988235 0.556863 0.007843
1.000000 0.047059 0.184314
1.000000 0.058824 0.670588
0.000000 0.011765 0.074510
0.000000 0.050980 0.278431
0.000000 0.088235 0.492157
0.000000 0.131373 0.691176
0.000000 0.288235 0.817647
0.000000 0.085295 0.481373
0.000000 0.127451 0.685294
0.000000 0.278432 0.808824
0.000000 0.435294 0.937255
0.000000 0.598039 0.988235
0.000000 0.274510 0.807843
0.000000 0.429412 0.932353
0.000000 0.596078 0.988235
0.000000 0.850981 0.868627
0.333334 0.996078 0.239216
0.000000 0.588236 0.988235
0.000000 0.843137 0.873529
0.311765 0.994117 0.266667
0.930392 0.822549 0.010784
1.000000 0.302941 0.047059
0.290196 0.992157 0.294118
0.923529 0.843137 0.011765
1.000000 0.333333 0.039216
1.000000 0.012745 0.359804
0.996078 0.180392 0.807843
0.000000 0.027451 0.154902
0.000000 0.065687 0.365686
0.000000 0.101961 0.566666
0.000000 0.192157 0.741176
0.000000 0.345098 0.866667
0.000000 0.100981 0.558823
0.000000 0.180392 0.730392
0.000000 0.335294 0.856863
0.000000 0.490196 0.983333
0.000000 0.667647 0.980392
0.000000 0.333334 0.854902
0.000000 0.486274 0.980393
0.000000 0.664706 0.980392
0.047058 0.943137 0.696079
0.625490 0.980392 0.078432
0.000000 0.661765 0.980392
0.043137 0.937255 0.708824
0.614706 0.980392 0.084314
0.981372 0.677451 0.000981
1.000000 0.091177 0.102941
0.560784 0.984314 0.109804
0.972549 0.717647 0.000000
1.000000 0.109804 0.094117
1.000000 0.040196 0.544118
1.000000 0.460784 0.872549
0.000000 0.043137 0.235294
0.000000 0.078431 0.440196
0.000000 0.117647 0.650980
0.000000 0.252941 0.789215
0.000000 0.400000 0.909804
0.000000 0.114706 0.639216
0.000000 0.243137 0.780392
0.000000 0.394118 0.905882
0.000000 0.553922 0.992157
0.000000 0.783334 0.911764
0.000000 0.388235 0.901961
0.000000 0.549019 0.992157
0.000000 0.766667 0.923530
0.210784 0.979412 0.425490
0.901961 0.890196 0.015686
0.000000 0.761765 0.926471
0.191176 0.976471 0.454902
0.886274 0.898039 0.018627
0.997059 0.439216 0.018627
1.000000 0.009804 0.262745
0.851961 0.914706 0.025490
0.995098 0.463725 0.014706
1.000000 0.017647 0.239215
1.000000 0.070588 0.752941
1.000000 0.737255 0.937255
0.000000 0.054902 0.313725
0.000000 0.094118 0.517647
0.000000 0.152941 0.709804
0.000000 0.307843 0.833334
0.000000 0.458824 0.956863
0.000000 0.149019 0.705882
0.000000 0.301960 0.828432
0.000000 0.454902 0.953922
0.000000 0.628432 0.984314
0.017647 0.895098 0.791177
0.000000 0.450980 0.949020
0.000000 0.617647 0.985294
0.011765 0.886275 0.811765
0.446078 0.991177 0.174510
0.952941 0.768627 0.003922
0.005883 0.877451 0.829412
0.402941 0.995098 0.195098
0.949020 0.779411 0.006863
1.000000 0.228431 0.065686
1.000000 0.025490 0.445099
0.945098 0.788235 0.007843
1.000000 0.250980 0.060784
1.000000 0.023529 0.431373
1.000000 0.294118 0.831373
1.000000 1.000000 1.000000
