HDR_heatmap.cube
LUT_3D_SIZE 33
0.000000 0.000000 0.000000
0.000000 0.003922 0.025123
0.000000 0.007843 0.050490
0.000000 0.011765 0.074510
0.000000 0.019118 0.104412
0.000000 0.023529 0.129412
0.000000 0.027451 0.149020
0.000000 0.031373 0.175858
0.000000 0.035294 0.203922
0.000000 0.040074 0.229167
0.000000 0.045833 0.255147
0.000000 0.050980 0.280269
0.000000 0.054902 0.309314
0.000000 0.058824 0.333333
0.000000 0.062745 0.356863
0.000000 0.070588 0.388235
0.000000 0.074510 0.411765
0.000000 0.078431 0.442769
0.000000 0.082353 0.466667
0.000000 0.086275 0.486275
0.000000 0.094118 0.517647
0.000000 0.098039 0.541176
0.000000 0.101961 0.564461
0.000000 0.105882 0.593505
0.000000 0.110784 0.618627
0.000000 0.116544 0.647671
0.000000 0.121569 0.670588
0.000000 0.134559 0.692770
0.000000 0.152941 0.709804
0.000000 0.168627 0.721569
0.000000 0.184804 0.733823
0.000000 0.211765 0.752941
0.000000 0.227451 0.768627
0.000000 0.007843 0.046813
0.000000 0.013603 0.073775
0.000000 0.017524 0.099142
0.000000 0.021446 0.127941
0.000000 0.026961 0.153554
0.000000 0.032721 0.180760
0.000000 0.037132 0.203186
0.000000 0.041054 0.231127
0.000000 0.044975 0.252574
0.000000 0.048897 0.279779
0.000000 0.053676 0.303799
0.000000 0.059437 0.331005
0.000000 0.064583 0.362377
0.000000 0.068505 0.383088
0.000000 0.072794 0.410294
0.000000 0.078431 0.436887
0.000000 0.084191 0.464093
0.000000 0.088113 0.491422
0.000000 0.092034 0.513480
0.000000 0.097671 0.545588
0.000000 0.101961 0.566299
0.000000 0.107720 0.595343
0.000000 0.111642 0.617034
0.000000 0.115563 0.644730
0.000000 0.119485 0.667280
0.000000 0.130883 0.689829
0.000000 0.150245 0.706373
0.000000 0.169608 0.722549
0.000000 0.188971 0.737990
0.000000 0.209191 0.754534
0.000000 0.231127 0.770465
0.000000 0.246813 0.784068
0.000000 0.266177 0.799510
0.000000 0.015686 0.093628
0.000000 0.021446 0.122427
0.000000 0.027206 0.147794
0.000000 0.031128 0.176593
0.000000 0.035049 0.201961
0.000000 0.040564 0.229412
0.000000 0.046324 0.255883
0.000000 0.050735 0.277941
0.000000 0.054657 0.310049
0.000000 0.058579 0.332107
0.000000 0.062745 0.356128
0.000000 0.067280 0.377819
0.000000 0.074265 0.411030
0.000000 0.078186 0.431741
0.000000 0.082108 0.465196
0.000000 0.086398 0.485907
0.000000 0.092157 0.512990
0.000000 0.097794 0.540073
0.000000 0.101716 0.560294
0.000000 0.105637 0.594240
0.000000 0.109804 0.615196
0.000000 0.117034 0.648407
0.000000 0.121324 0.669853
0.000000 0.128922 0.689706
0.000000 0.151961 0.708824
0.000000 0.167647 0.720834
0.000000 0.185294 0.734559
0.000000 0.207231 0.751103
0.000000 0.227941 0.768627
0.000000 0.247304 0.784559
0.000000 0.266177 0.799510
0.000000 0.286029 0.815686
0.000000 0.304902 0.830638
0.000000 0.027451 0.153799
0.000000 0.031373 0.177329
0.000000 0.035294 0.196937
0.000000 0.040809 0.223652
0.000000 0.044730 0.250368
0.000000 0.048652 0.277818
0.000000 0.054167 0.304534
0.000000 0.059927 0.331985
0.000000 0.064338 0.358701
0.000000 0.068260 0.383824
0.000000 0.072181 0.407966
0.000000 0.078431 0.436152
0.000000 0.082353 0.459682
0.000000 0.086643 0.480392
0.000000 0.091789 0.512990
0.000000 0.095711 0.534559
0.000000 0.100000 0.561642
0.000000 0.105882 0.589093
0.000000 0.111397 0.616054
0.000000 0.115318 0.642892
0.000000 0.119240 0.668015
0.000000 0.131373 0.690564
0.000000 0.150735 0.706373
0.000000 0.170098 0.723039
0.000000 0.187500 0.736519
0.000000 0.204780 0.750613
0.000000 0.225980 0.765564
0.000000 0.243627 0.780882
0.000000 0.262991 0.796324
0.000000 0.282353 0.813358
0.000000 0.301715 0.829535
0.000000 0.321078 0.844975
0.000000 0.340441 0.862010
0.000000 0.035294 0.202451
0.000000 0.039216 0.225980
0.000000 0.046569 0.255883
0.000000 0.050490 0.275980
0.000000 0.054412 0.300490
0.000000 0.058334 0.326715
0.000000 0.062255 0.353922
0.000000 0.067770 0.378799
0.000000 0.073529 0.407353
0.000000 0.077941 0.432476
0.000000 0.081863 0.461520
0.000000 0.086275 0.484804
0.000000 0.090196 0.508333
0.000000 0.097549 0.538235
0.000000 0.101471 0.559804
0.000000 0.105392 0.583211
0.000000 0.109804 0.614706
0.000000 0.113725 0.637745
0.000000 0.121079 0.668137
0.000000 0.128432 0.688113
0.000000 0.147059 0.703922
0.000000 0.166421 0.719853
0.000000 0.185785 0.735294
0.000000 0.208211 0.751103
0.000000 0.226471 0.767647
0.000000 0.247794 0.785049
0.000000 0.265687 0.799020
0.000000 0.281373 0.811275
0.000000 0.298039 0.826961
0.000000 0.319608 0.845098
0.000000 0.336765 0.858334
0.000000 0.356127 0.874264
0.000000 0.375491 0.889706
0.000000 0.044485 0.251103
0.000000 0.048897 0.278309
0.000000 0.054657 0.305270
0.000000 0.060172 0.332230
0.000000 0.064093 0.353186
0.000000 0.068015 0.380515
0.000000 0.071936 0.404044
0.000000 0.075858 0.427696
0.000000 0.081373 0.456005
0.000000 0.087133 0.481128
0.000000 0.091544 0.508823
0.000000 0.095466 0.535294
0.000000 0.100490 0.561887
0.000000 0.105882 0.588358
0.000000 0.111152 0.614583
0.000000 0.115073 0.635539
0.000000 0.118995 0.662868
0.000000 0.131863 0.691299
0.000000 0.147794 0.704657
0.000000 0.166176 0.719117
0.000000 0.182108 0.733578
0.000000 0.204044 0.750368
0.000000 0.224755 0.764706
0.000000 0.244117 0.781372
0.000000 0.263481 0.796814
0.000000 0.282843 0.813358
0.000000 0.302206 0.830270
0.000000 0.319117 0.843260
0.000000 0.339951 0.861520
0.000000 0.355637 0.873284
0.000000 0.374019 0.890319
0.000000 0.391177 0.903554
0.000000 0.411887 0.920343
0.000000 0.054167 0.299755
0.000000 0.058089 0.326960
0.000000 0.062500 0.353922
0.000000 0.068260 0.379779
0.000000 0.073775 0.408088
0.000000 0.077696 0.429167
0.000000 0.081618 0.462255
0.000000 0.085540 0.482598
0.000000 0.090196 0.507598
0.000000 0.094976 0.529779
0.000000 0.100735 0.556127
0.000000 0.105147 0.583946
0.000000 0.109069 0.612009
0.000000 0.114093 0.638113
0.000000 0.119853 0.663971
0.000000 0.127941 0.688725
0.000000 0.143627 0.700490
0.000000 0.166911 0.719976
0.000000 0.182843 0.732598
0.000000 0.208089 0.750735
0.000000 0.225980 0.767156
0.000000 0.241666 0.778921
0.000000 0.263726 0.797794
0.000000 0.279412 0.809559
0.000000 0.298529 0.826961
0.000000 0.317892 0.843383
0.000000 0.337255 0.858824
0.000000 0.356617 0.875000
0.000000 0.375000 0.889461
0.000000 0.395343 0.906740
0.000000 0.415932 0.922549
0.000000 0.433823 0.935784
0.000000 0.449509 0.948285
0.000000 0.062745 0.348407
0.000000 0.067770 0.375613
0.000000 0.071691 0.402574
0.000000 0.076103 0.427696
0.000000 0.081863 0.456740
0.000000 0.087378 0.481863
0.000000 0.091299 0.509804
0.000000 0.095221 0.536030
0.000000 0.099142 0.558456
0.000000 0.105882 0.587623
0.000000 0.109804 0.610049
0.000000 0.114338 0.632598
0.000000 0.118750 0.662133
0.000000 0.124510 0.684927
0.000000 0.143873 0.700736
0.000000 0.163235 0.716176
0.000000 0.182598 0.733578
0.000000 0.203064 0.749878
0.000000 0.224020 0.764093
0.000000 0.244608 0.781863
0.000000 0.261030 0.794363
0.000000 0.283333 0.813358
0.000000 0.300245 0.828554
0.000000 0.315931 0.841422
0.000000 0.333824 0.855392
0.000000 0.352941 0.871691
0.000000 0.372304 0.888848
0.000000 0.391667 0.904289
0.000000 0.412132 0.920343
0.000000 0.434314 0.936275
0.000000 0.453676 0.951716
0.000000 0.471079 0.968015
0.000000 0.492402 0.985417
0.000000 0.073529 0.405883
0.000000 0.077451 0.426471
0.000000 0.081372 0.451961
0.000000 0.085294 0.477329
0.000000 0.089706 0.505392
0.000000 0.095466 0.530515
0.000000 0.100981 0.556617
0.000000 0.104902 0.584681
0.000000 0.108823 0.610784
0.000000 0.113725 0.636275
0.000000 0.117647 0.656863
0.000000 0.127451 0.685294
0.000000 0.143137 0.700000
0.000000 0.159559 0.713480
0.000000 0.182353 0.732353
0.000000 0.198407 0.747182
0.000000 0.223529 0.764705
0.000000 0.240931 0.778309
0.000000 0.260294 0.794608
0.000000 0.279657 0.810049
0.000000 0.296078 0.825490
0.000000 0.318383 0.843873
0.000000 0.335294 0.856863
0.000000 0.356862 0.875490
0.000000 0.374510 0.889216
0.000000 0.390196 0.903921
0.000000 0.408088 0.917157
0.000000 0.431372 0.934314
0.000000 0.450000 0.949020
0.000000 0.469363 0.965073
0.000000 0.488725 0.982598
0.000000 0.508088 0.994117
0.000000 0.531372 0.996078
0.000000 0.082353 0.457476
0.000000 0.087133 0.479657
0.000000 0.091054 0.502328
0.000000 0.094976 0.531985
0.000000 0.098897 0.554657
0.000000 0.103309 0.579167
0.000000 0.109069 0.607353
0.000000 0.114583 0.633333
0.000000 0.118505 0.659436
0.000000 0.125000 0.684927
0.000000 0.144363 0.701226
0.000000 0.162500 0.715441
0.000000 0.179902 0.731985
0.000000 0.196446 0.743750
0.000000 0.221324 0.762500
0.000000 0.237255 0.774510
0.000000 0.260540 0.793873
0.000000 0.277941 0.810417
0.000000 0.295343 0.823897
0.000000 0.315441 0.840932
0.000000 0.334069 0.855637
0.000000 0.353431 0.871691
0.000000 0.372794 0.889216
0.000000 0.392157 0.905024
0.000000 0.412132 0.920221
0.000000 0.430882 0.932843
0.000000 0.452696 0.950736
0.000000 0.468383 0.965564
0.000000 0.485784 0.979044
0.000000 0.504411 0.992892
0.000000 0.527941 0.995833
0.000000 0.551838 0.992157
0.000000 0.575123 0.991299
0.000000 0.090196 0.506127
0.000000 0.095956 0.531250
0.000000 0.100735 0.557598
0.000000 0.104657 0.580637
0.000000 0.108578 0.609558
0.000000 0.112500 0.631863
0.000000 0.117647 0.656373
0.000000 0.123775 0.680882
0.000000 0.140686 0.698530
0.000000 0.160049 0.714216
0.000000 0.179412 0.729657
0.000000 0.199387 0.747181
0.000000 0.222059 0.763235
0.000000 0.240686 0.777941
0.000000 0.256373 0.790931
0.000000 0.277451 0.808088
0.000000 0.295588 0.825000
0.000000 0.316667 0.842157
0.000000 0.334804 0.856373
0.000000 0.350490 0.869363
0.000000 0.371569 0.886519
0.000000 0.388481 0.902206
0.000000 0.409069 0.917647
0.000000 0.431127 0.933946
0.000000 0.450490 0.949755
0.000000 0.469853 0.965196
0.000000 0.487745 0.981863
0.000000 0.508578 0.993627
0.000000 0.527205 0.996078
0.000000 0.550490 0.992157
0.000000 0.570833 0.991912
0.000000 0.595098 0.988235
0.000000 0.617157 0.985539
0.000000 0.098652 0.554166
0.000000 0.103799 0.579902
0.000000 0.109559 0.608333
0.000000 0.114338 0.634069
0.000000 0.118260 0.659682
0.000000 0.124020 0.684191
0.000000 0.139706 0.696569
0.000000 0.162009 0.714951
0.000000 0.177696 0.730025
0.000000 0.195711 0.743505
0.000000 0.218383 0.759559
0.000000 0.237745 0.775000
0.000000 0.257108 0.791912
0.000000 0.276471 0.809191
0.000000 0.295833 0.824632
0.000000 0.314951 0.840441
0.000000 0.331863 0.853431
0.000000 0.353921 0.871691
0.000000 0.369853 0.886888
0.000000 0.392647 0.905760
0.000000 0.409681 0.918872
0.000000 0.428676 0.930637
0.000000 0.446814 0.947549
0.000000 0.466177 0.963603
0.000000 0.485539 0.979044
0.000000 0.504902 0.993872
0.000000 0.528799 0.995465
0.000000 0.552083 0.992157
0.000000 0.575368 0.991544
0.000000 0.595221 0.988235
0.000000 0.621446 0.984314
0.000000 0.641054 0.983701
0.000000 0.660662 0.980392
0.000000 0.109804 0.607843
0.000000 0.113725 0.632966
0.000000 0.117647 0.658334
0.000000 0.124755 0.685539
0.000000 0.142157 0.699020
0.000000 0.160539 0.714951
0.000000 0.181373 0.731863
0.000000 0.197059 0.746078
0.000000 0.217647 0.758823
0.000000 0.240196 0.777451
0.000000 0.256373 0.790931
0.000000 0.275735 0.808456
0.000000 0.295098 0.824510
0.000000 0.314460 0.839951
0.000000 0.334314 0.855883
0.000000 0.350245 0.869363
0.000000 0.372549 0.888235
0.000000 0.389216 0.902941
0.000000 0.407843 0.917647
0.000000 0.432353 0.934314
0.000000 0.448039 0.947549
0.000000 0.470343 0.965931
0.000000 0.487255 0.981373
0.000000 0.504166 0.994362
0.000000 0.527451 0.996078
0.000000 0.550735 0.992157
0.000000 0.574755 0.991422
0.000000 0.597059 0.988235
0.000000 0.618138 0.985784
0.000000 0.646201 0.981985
0.000000 0.666177 0.980392
0.000000 0.696201 0.969240
0.000000 0.735294 0.945588
0.000000 0.118015 0.652818
0.000000 0.122304 0.683088
0.000000 0.137990 0.694853
0.000000 0.156863 0.712132
0.000000 0.176226 0.728799
0.000000 0.195956 0.744240
0.000000 0.218873 0.760049
0.000000 0.238235 0.775490
0.000000 0.257598 0.791912
0.000000 0.275245 0.808211
0.000000 0.291667 0.820711
0.000000 0.307843 0.833334
0.000000 0.330147 0.851715
0.000000 0.346569 0.867770
0.000000 0.369362 0.886643
0.000000 0.385294 0.898897
0.000000 0.405024 0.914461
0.000000 0.428186 0.930147
0.000000 0.447304 0.947549
0.000000 0.466667 0.964338
0.000000 0.483088 0.977206
0.000000 0.505392 0.994853
0.000000 0.527328 0.995710
0.000000 0.546936 0.992157
0.000000 0.573652 0.991789
0.000000 0.592892 0.988235
0.000000 0.614339 0.987500
0.000000 0.637623 0.983946
0.000000 0.661030 0.980392
0.000000 0.687255 0.974632
0.000000 0.727941 0.951103
0.000000 0.768750 0.922059
0.000000 0.809681 0.893015
0.000000 0.141667 0.698530
0.000000 0.157353 0.712010
0.000000 0.180392 0.731127
0.000000 0.196569 0.745588
0.000000 0.218628 0.759804
0.000000 0.237990 0.775245
0.000000 0.257353 0.791422
0.000000 0.276716 0.808946
0.000000 0.294608 0.824020
0.000000 0.312010 0.837500
0.000000 0.331373 0.854167
0.000000 0.349510 0.868873
0.000000 0.368627 0.886275
0.000000 0.388726 0.902451
0.000000 0.404412 0.914216
0.000000 0.427696 0.929657
0.000000 0.447549 0.947304
0.000000 0.466422 0.964461
0.000000 0.486765 0.980883
0.000000 0.505147 0.995343
0.000000 0.528431 0.996078
0.000000 0.549510 0.992157
0.000000 0.572794 0.990931
0.000000 0.596569 0.988235
0.000000 0.616177 0.986029
0.000000 0.643627 0.982108
0.000000 0.665441 0.980392
0.000000 0.686152 0.975245
0.000000 0.727451 0.951470
0.000000 0.768505 0.922427
0.000000 0.809068 0.893383
0.000000 0.851471 0.868260
0.008334 0.881128 0.822059
0.000000 0.176716 0.729535
0.000000 0.196201 0.744975
0.000000 0.219363 0.760539
0.000000 0.235784 0.773039
0.000000 0.251470 0.788603
0.000000 0.274755 0.807966
0.000000 0.290441 0.819853
0.000000 0.308333 0.833824
0.000000 0.327696 0.850245
0.000000 0.347059 0.867770
0.000000 0.366421 0.883946
0.000000 0.384804 0.898407
0.000000 0.405270 0.914951
0.000000 0.427696 0.929657
0.000000 0.443627 0.945466
0.000000 0.459314 0.957231
0.000000 0.482598 0.976716
0.000000 0.505882 0.995833
0.000000 0.525735 0.996078
0.000000 0.545343 0.992157
0.000000 0.568015 0.992034
0.000000 0.591177 0.988235
0.000000 0.614584 0.987010
0.000000 0.637868 0.984191
0.000000 0.662010 0.980392
0.000000 0.687500 0.974387
0.000000 0.726470 0.952206
0.000000 0.757966 0.928677
0.000000 0.808456 0.893750
0.000000 0.843627 0.874142
0.004657 0.875613 0.832966
0.024020 0.904779 0.770956
0.043382 0.937623 0.708946
0.000000 0.219608 0.760784
0.000000 0.238970 0.776225
0.000000 0.254902 0.790196
0.000000 0.273775 0.805515
0.000000 0.294118 0.823530
0.000000 0.309804 0.835295
0.000000 0.327941 0.850245
0.000000 0.349020 0.868627
0.000000 0.366666 0.884314
0.000000 0.386030 0.899755
0.000000 0.403922 0.913725
0.000000 0.428676 0.930637
0.000000 0.447059 0.947059
0.000000 0.463481 0.961152
0.000000 0.486274 0.980393
0.000000 0.501961 0.992156
0.000000 0.525490 0.996078
0.000000 0.549019 0.992157
0.000000 0.568627 0.992157
0.000000 0.595343 0.988235
0.000000 0.615687 0.986275
0.000000 0.637991 0.984314
0.000000 0.662500 0.980392
0.000000 0.687622 0.974265
0.000000 0.729411 0.950000
0.000000 0.766667 0.923530
0.000000 0.803676 0.897794
0.000000 0.850981 0.868627
0.007843 0.880393 0.823530
0.028186 0.912867 0.756618
0.047059 0.943137 0.696079
0.079167 0.962868 0.630147
0.141176 0.972549 0.533333
0.000000 0.258579 0.792034
0.000000 0.277941 0.809436
0.000000 0.297304 0.826716
0.000000 0.313480 0.838971
0.000000 0.329167 0.850857
0.000000 0.347549 0.867770
0.000000 0.368137 0.885785
0.000000 0.386275 0.900000
0.000000 0.405637 0.915564
0.000000 0.428922 0.931005
0.000000 0.448284 0.947549
0.000000 0.466422 0.964461
0.000000 0.487010 0.981128
0.000000 0.505392 0.995710
0.000000 0.525122 0.996078
0.000000 0.544975 0.992280
0.000000 0.572304 0.992157
0.000000 0.591912 0.988235
0.000000 0.618995 0.984437
0.000000 0.638971 0.984314
0.000000 0.662990 0.980392
0.000000 0.688113 0.973774
0.000000 0.729902 0.949510
0.000000 0.771692 0.920588
0.000000 0.812255 0.891544
0.000000 0.853922 0.866299
0.011520 0.885907 0.812500
0.027206 0.909436 0.761519
0.050490 0.948285 0.683946
0.088971 0.964216 0.613971
0.141789 0.972426 0.532108
0.203799 0.978431 0.435294
0.265932 0.988112 0.338481
0.000000 0.293627 0.823039
0.000000 0.309558 0.835049
0.000000 0.328922 0.850735
0.000000 0.348284 0.868260
0.000000 0.367647 0.885294
0.000000 0.387010 0.900735
0.000000 0.403431 0.913235
0.000000 0.425245 0.929412
0.000000 0.444608 0.944853
0.000000 0.462255 0.960294
0.000000 0.479902 0.974020
0.000000 0.501470 0.991666
0.000000 0.521078 0.996078
0.000000 0.545833 0.992157
0.000000 0.568137 0.992157
0.000000 0.592402 0.988235
0.000000 0.615196 0.986520
0.000000 0.638971 0.984314
0.000000 0.663971 0.980392
0.000000 0.683578 0.976961
0.000000 0.716667 0.957353
0.000000 0.765441 0.924265
0.000000 0.799020 0.900735
0.000000 0.846569 0.871078
0.007353 0.879657 0.825000
0.025245 0.906495 0.767402
0.044608 0.939461 0.704657
0.082108 0.963358 0.625245
0.144117 0.972549 0.528431
0.202451 0.978186 0.437745
0.254902 0.986275 0.356618
0.318505 0.994240 0.259559
0.411029 0.994363 0.191422
0.000000 0.328677 0.850612
0.000000 0.348039 0.867770
0.000000 0.367402 0.885049
0.000000 0.386765 0.900490
0.000000 0.406127 0.916299
0.000000 0.426716 0.929044
0.000000 0.448774 0.947549
0.000000 0.465196 0.963235
0.000000 0.481618 0.975736
0.000000 0.499019 0.989583
0.000000 0.523652 0.996078
0.000000 0.545220 0.992525
0.000000 0.570711 0.992157
0.000000 0.592157 0.988235
0.000000 0.615074 0.986029
0.000000 0.638481 0.984314
0.000000 0.658089 0.980392
0.000000 0.688848 0.973284
0.000000 0.724019 0.953676
0.000000 0.773162 0.919853
0.000000 0.806372 0.895221
0.000000 0.841666 0.875245
0.010662 0.883701 0.816544
0.025980 0.907598 0.765563
0.044362 0.939093 0.705147
0.082108 0.962500 0.625735
0.143014 0.972181 0.529657
0.205024 0.978676 0.432843
0.267402 0.988358 0.335539
0.333701 0.995710 0.239951
0.431250 0.992525 0.182230
0.517525 0.988235 0.135539
0.599878 0.980760 0.092034
0.000000 0.363725 0.881373
0.000000 0.383089 0.896814
0.000000 0.402941 0.912745
0.000000 0.422794 0.927083
0.000000 0.442157 0.944118
0.000000 0.461765 0.959804
0.000000 0.480882 0.975000
0.000000 0.500245 0.990441
0.000000 0.518137 0.996078
0.000000 0.546814 0.992157
0.000000 0.567647 0.992157
0.000000 0.588481 0.988235
0.000000 0.614706 0.986765
0.000000 0.634314 0.984314
0.000000 0.658824 0.980392
0.000000 0.682843 0.977451
0.000000 0.717647 0.956863
0.000000 0.763726 0.925368
0.000000 0.798039 0.901470
0.000000 0.841666 0.875245
0.006863 0.878922 0.826471
0.026226 0.907966 0.764461
0.045588 0.940932 0.701226
0.075490 0.962255 0.636274
0.129902 0.970098 0.548039
0.200980 0.977941 0.440196
0.251961 0.985784 0.361765
0.319976 0.994730 0.256618
0.408333 0.994608 0.192647
0.504044 0.988235 0.142892
0.606618 0.980392 0.088725
0.700981 0.966667 0.051961
0.803922 0.933333 0.035294
0.000000 0.405392 0.915809
0.000000 0.426226 0.928799
0.000000 0.441912 0.943873
0.000000 0.460785 0.958824
0.000000 0.480147 0.974755
0.000000 0.499510 0.990318
0.000000 0.522059 0.996078
0.000000 0.545466 0.992770
0.000000 0.568750 0.992157
0.000000 0.590932 0.988235
0.000000 0.615319 0.985539
0.000000 0.636152 0.984314
0.000000 0.657598 0.980392
0.000000 0.678309 0.979657
0.000000 0.723039 0.954166
0.000000 0.755025 0.930882
0.000000 0.802941 0.897794
0.000000 0.840686 0.875735
0.006740 0.877206 0.829289
0.025490 0.906863 0.767034
0.041912 0.935417 0.713480
0.084069 0.962255 0.622794
0.144240 0.971936 0.527206
0.206250 0.978921 0.430392
0.262990 0.987622 0.343383
0.313358 0.995465 0.261030
0.421814 0.992770 0.187132
0.508089 0.988848 0.140686
0.602574 0.981005 0.090319
0.703431 0.964461 0.052083
0.800245 0.934191 0.035417
0.885417 0.899387 0.018750
0.916422 0.857966 0.012378
0.000000 0.445588 0.946324
0.000000 0.463726 0.960539
0.000000 0.484314 0.978432
0.000000 0.500490 0.990686
0.000000 0.517402 0.996078
0.000000 0.539828 0.994730
0.000000 0.564951 0.992157
0.000000 0.588971 0.988235
0.000000 0.611275 0.987010
0.000000 0.636397 0.983456
0.000000 0.660049 0.980392
0.000000 0.685171 0.976103
0.000000 0.719608 0.954657
0.000000 0.762991 0.925735
0.000000 0.797059 0.902206
0.000000 0.832843 0.879534
0.006373 0.878187 0.827941
0.024510 0.906617 0.768382
0.041176 0.934314 0.714461
0.074020 0.962010 0.638725
0.131372 0.970098 0.545588
0.195221 0.977083 0.448774
0.257843 0.986765 0.350736
0.321446 0.995220 0.253676
0.416422 0.993872 0.187990
0.521691 0.987010 0.132598
0.617402 0.980392 0.082843
0.698530 0.967647 0.052451
0.789216 0.936520 0.035539
0.871446 0.905760 0.021569
0.912745 0.867402 0.014461
0.930025 0.824755 0.010539
0.947549 0.782108 0.006618
0.000000 0.480637 0.974755
0.000000 0.500000 0.991054
0.000000 0.522426 0.996078
0.000000 0.542524 0.993015
0.000000 0.568260 0.992157
0.000000 0.587868 0.989093
0.000000 0.609191 0.988235
0.000000 0.631005 0.984314
0.000000 0.654535 0.981250
0.000000 0.679289 0.978676
0.000000 0.716299 0.957966
0.000000 0.756495 0.930147
0.000000 0.798529 0.901103
0.000000 0.839706 0.876226
0.003064 0.871079 0.841299
0.024020 0.904657 0.771936
0.041421 0.934681 0.714951
0.084559 0.963480 0.621324
0.135171 0.971691 0.541911
0.186152 0.975613 0.463480
0.255515 0.986519 0.354412
0.307966 0.994607 0.270221
0.396201 0.994853 0.199019
0.502696 0.989093 0.143627
0.605270 0.981250 0.088603
0.705882 0.962990 0.051838
0.802696 0.932965 0.034681
0.886152 0.898162 0.018750
0.915931 0.859191 0.012623
0.928554 0.826961 0.011765
0.943873 0.790441 0.007598
0.962132 0.741054 0.000858
0.978676 0.699265 0.000000
0.000000 0.516666 0.996078
0.000000 0.540809 0.994240
0.000000 0.565931 0.992157
0.000000 0.589461 0.988235
0.000000 0.612255 0.987255
0.000000 0.636275 0.983334
0.000000 0.655882 0.980392
0.000000 0.681372 0.978431
0.000000 0.713726 0.958823
0.000000 0.750000 0.935294
0.000000 0.791177 0.906618
0.000000 0.833824 0.878554
0.005883 0.877451 0.829412
0.022304 0.902451 0.775858
0.041666 0.935049 0.713235
0.072549 0.961765 0.641176
0.126470 0.969607 0.552941
0.197181 0.977329 0.446323
0.249020 0.985294 0.366667
0.322917 0.995710 0.250735
0.402941 0.995098 0.195098
0.499019 0.987255 0.145098
0.585049 0.983088 0.097794
0.696079 0.968627 0.052941
0.784314 0.938235 0.036275
0.874387 0.905269 0.020833
0.913235 0.866667 0.014706
0.930025 0.824020 0.010784
0.948039 0.781372 0.006863
0.963725 0.744117 0.002942
0.980392 0.685294 0.000000
0.985294 0.618627 0.004902
0.989216 0.540196 0.008823
0.000000 0.561397 0.992157
0.000000 0.584682 0.989338
0.000000 0.607966 0.988235
0.000000 0.631250 0.984314
0.000000 0.655147 0.980882
0.000000 0.680269 0.977696
0.000000 0.717402 0.957353
0.000000 0.752451 0.932721
0.000000 0.799020 0.900736
0.000000 0.833211 0.880025
0.002819 0.870098 0.843015
0.018628 0.896569 0.788358
0.040931 0.933946 0.716422
0.064461 0.957843 0.656127
0.126838 0.970343 0.555392
0.185172 0.975490 0.464706
0.247181 0.985171 0.367892
0.309191 0.994853 0.267280
0.380025 0.996078 0.206618
0.505392 0.988603 0.142157
0.591789 0.981495 0.095711
0.703431 0.963481 0.052574
0.792893 0.936642 0.036397
0.868505 0.909191 0.021814
0.913235 0.864828 0.012868
0.926103 0.832353 0.011765
0.944363 0.788970 0.007108
0.961152 0.744485 0.001348
0.978186 0.696324 0.000000
0.985539 0.615319 0.005147
0.991054 0.531495 0.010662
0.997059 0.446078 0.016667
1.000000 0.377328 0.030882
0.000000 0.613236 0.987500
0.000000 0.632844 0.984314
0.000000 0.652451 0.980392
0.000000 0.675980 0.978921
0.000000 0.710294 0.960784
0.000000 0.750245 0.934926
0.000000 0.792157 0.905882
0.000000 0.834804 0.877941
0.004412 0.872794 0.837745
0.022549 0.903186 0.774755
0.038235 0.929902 0.723774
0.071079 0.961519 0.643627
0.118872 0.969362 0.565196
0.172059 0.973652 0.483089
0.247549 0.985049 0.369118
0.296323 0.992892 0.285785
0.378677 0.995343 0.208088
0.486519 0.988235 0.152451
0.587745 0.982598 0.096814
0.689951 0.970343 0.054534
0.779412 0.939951 0.037010
0.877328 0.904779 0.020098
0.912745 0.867892 0.014951
0.930025 0.823284 0.011030
0.946569 0.784558 0.007108
0.961519 0.749264 0.003187
0.974020 0.706618 0.000000
0.983701 0.631618 0.003309
0.988970 0.546324 0.008578
0.995220 0.462623 0.014828
