HDR_heatmap.cube
LUT_3D_SIZE 9
0.000000 0.000000 0.000000
0.000000 0.019118 0.104412
0.000000 0.035294 0.203922
0.000000 0.054902 0.309314
0.000000 0.074510 0.411765
0.000000 0.094118 0.517647
0.000000 0.110784 0.618627
0.000000 0.152941 0.709804
0.000000 0.227451 0.768627
0.000000 0.035294 0.202451
0.000000 0.054412 0.300490
0.000000 0.073529 0.407353
0.000000 0.090196 0.508333
0.000000 0.109804 0.614706
0.000000 0.147059 0.703922
0.000000 0.226471 0.767647
0.000000 0.298039 0.826961
0.000000 0.375491 0.889706
0.000000 0.073529 0.405883
0.000000 0.089706 0.505392
0.000000 0.108823 0.610784
0.000000 0.143137 0.700000
0.000000 0.223529 0.764705
0.000000 0.296078 0.825490
0.000000 0.374510 0.889216
0.000000 0.450000 0.949020
0.000000 0.531372 0.996078
0.000000 0.109804 0.607843
0.000000 0.142157 0.699020
0.000000 0.217647 0.758823
0.000000 0.295098 0.824510
0.000000 0.372549 0.888235
0.000000 0.448039 0.947549
0.000000 0.527451 0.996078
0.000000 0.618138 0.985784
0.000000 0.735294 0.945588
0.000000 0.219608 0.760784
0.000000 0.294118 0.823530
0.000000 0.366666 0.884314
0.000000 0.447059 0.947059
0.000000 0.525490 0.996078
0.000000 0.615687 0.986275
0.000000 0.729411 0.950000
0.007843 0.880393 0.823530
0.141176 0.972549 0.533333
0.000000 0.363725 0.881373
0.000000 0.442157 0.944118
0.000000 0.518137 0.996078
0.000000 0.614706 0.986765
0.000000 0.717647 0.956863
0.006863 0.878922 0.826471
0.129902 0.970098 0.548039
0.408333 0.994608 0.192647
0.803922 0.933333 0.035294
0.000000 0.516666 0.996078
0.000000 0.612255 0.987255
0.000000 0.713726 0.958823
0.005883 0.877451 0.829412
0.126470 0.969607 0.552941
0.402941 0.995098 0.195098
0.784314 0.938235 0.036275
0.948039 0.781372 0.006863
0.989216 0.540196 0.008823
0.000000 0.711765 0.959804
0.001471 0.862255 0.856373
0.111274 0.968137 0.577451
0.381373 0.995588 0.206372
0.769608 0.943627 0.038726
0.941176 0.795588 0.007353
0.989215 0.544118 0.008823
1.000000 0.239706 0.063235
1.000000 0.045588 0.187255
0.113725 0.968627 0.572549
0.349020 0.996078 0.223529
0.754902 0.948039 0.041177
0.937255 0.803922 0.007843
0.988235 0.556863 0.007843
1.000000 0.262745 0.057843
1.000000 0.047059 0.184314
1.000000 0.020098 0.407353
1.000000 0.058824 0.670588
0.000000 0.007353 0.041667
0.000000 0.023529 0.139706
0.000000 0.043137 0.244118
0.000000 0.062745 0.345098
0.000000 0.081863 0.453431
0.000000 0.098039 0.552941
0.000000 0.117647 0.658824
0.000000 0.177451 0.729902
0.000000 0.258824 0.792157
0.000000 0.042647 0.234314
0.000000 0.062255 0.342647
0.000000 0.081372 0.450490
0.000000 0.097549 0.550000
0.000000 0.117157 0.653431
0.000000 0.175490 0.728432
0.000000 0.256863 0.790686
0.000000 0.329412 0.851470
0.000000 0.405882 0.916176
0.000000 0.078431 0.440196
0.000000 0.097549 0.548529
0.000000 0.116667 0.646568
0.000000 0.172549 0.725490
0.000000 0.249019 0.786274
0.000000 0.326471 0.849019
0.000000 0.400000 0.910784
0.000000 0.479412 0.974020
0.000000 0.561765 0.992157
0.000000 0.116176 0.646568
0.000000 0.172549 0.725490
0.000000 0.249019 0.786274
0.000000 0.326471 0.849510
0.000000 0.397059 0.908333
0.000000 0.479412 0.973529
0.000000 0.565196 0.992157
0.000000 0.655883 0.980392
0.000000 0.790196 0.907353
0.000000 0.247058 0.784313
0.000000 0.320588 0.846079
0.000000 0.396079 0.907843
0.000000 0.473530 0.968137
0.000000 0.558824 0.992157
0.000000 0.653922 0.980392
0.000000 0.784314 0.911764
0.036274 0.926961 0.730392
0.229411 0.982353 0.396079
0.000000 0.395098 0.907353
0.000000 0.473530 0.968137
0.000000 0.556372 0.992157
0.000000 0.646568 0.981863
0.000000 0.782353 0.913235
0.034314 0.923529 0.736764
0.225980 0.981863 0.400980
0.561274 0.984314 0.110294
0.904902 0.884314 0.015686
0.000000 0.555882 0.992157
0.000000 0.644118 0.983334
0.000000 0.775490 0.917647
0.031372 0.916667 0.748039
0.222549 0.981372 0.405882
0.547059 0.985784 0.119608
0.905883 0.881372 0.014706
0.968627 0.723529 0.000000
1.000000 0.412745 0.021569
0.000000 0.775981 0.917647
0.027451 0.910294 0.760294
0.213235 0.979902 0.420588
0.526471 0.987745 0.130392
0.900000 0.890196 0.016176
0.966667 0.728431 0.000000
0.999510 0.420588 0.020098
1.000000 0.149020 0.084314
1.000000 0.000490 0.277451
0.192157 0.976471 0.454902
0.516177 0.988235 0.136274
0.878431 0.905882 0.019608
0.964706 0.733333 0.000000
0.998039 0.437255 0.017647
1.000000 0.156863 0.082353
1.000000 0.008824 0.256862
1.000000 0.035784 0.516666
1.000000 0.074020 0.773530
0.000000 0.011765 0.074510
0.000000 0.031373 0.182843
0.000000 0.050980 0.278431
0.000000 0.069608 0.385294
0.000000 0.088235 0.492157
0.000000 0.105882 0.596078
0.000000 0.131373 0.691176
0.000000 0.212745 0.753921
0.000000 0.288235 0.817647
0.000000 0.050490 0.277451
0.000000 0.069608 0.384314
0.000000 0.085785 0.482353
0.000000 0.105392 0.590196
0.000000 0.128432 0.689216
0.000000 0.207843 0.750980
0.000000 0.283333 0.813236
0.000000 0.358823 0.876960
0.000000 0.434314 0.936275
0.000000 0.085295 0.481373
0.000000 0.104902 0.579902
0.000000 0.127451 0.685294
0.000000 0.205392 0.749510
0.000000 0.278432 0.808824
0.000000 0.353921 0.872549
0.000000 0.435294 0.937255
0.000000 0.509803 0.994117
0.000000 0.598039 0.988235
0.000000 0.126471 0.687255
0.000000 0.198039 0.747059
0.000000 0.277451 0.808334
0.000000 0.350000 0.869118
0.000000 0.432353 0.934314
0.000000 0.503921 0.994117
0.000000 0.597059 0.988235
0.000000 0.692647 0.971078
0.000000 0.852941 0.867157
0.000000 0.274510 0.807843
0.000000 0.349020 0.868627
0.000000 0.429412 0.932353
0.000000 0.502941 0.993137
0.000000 0.596078 0.988235
0.000000 0.684314 0.976471
0.000000 0.850981 0.868627
0.087255 0.964216 0.616667
0.333334 0.996078 0.239216
0.000000 0.425490 0.928432
0.000000 0.500000 0.990686
0.000000 0.590196 0.988235
0.000000 0.682843 0.977451
0.000000 0.839215 0.876471
0.075490 0.962255 0.636274
0.325490 0.996078 0.247059
0.700981 0.966667 0.051961
0.929412 0.823529 0.011765
0.000000 0.588236 0.988235
0.000000 0.680392 0.978431
0.000000 0.843137 0.873529
0.072549 0.961765 0.641176
0.311765 0.994117 0.266667
0.696079 0.968627 0.052941
0.930392 0.822549 0.010784
0.985294 0.614216 0.004902
1.000000 0.302941 0.047059
0.000000 0.829412 0.881373
0.067647 0.959804 0.650000
0.297549 0.992647 0.285294
0.681373 0.972549 0.056863
0.926961 0.834804 0.011275
0.984804 0.623039 0.004412
1.000000 0.322059 0.042157
1.000000 0.067647 0.146568
1.000000 0.012745 0.359314
0.290196 0.992157 0.294118
0.676471 0.974510 0.057843
0.923529 0.843137 0.011765
0.982843 0.639216 0.002451
1.000000 0.333333 0.039216
1.000000 0.073529 0.135294
1.000000 0.012745 0.359804
1.000000 0.050000 0.612745
0.996078 0.180392 0.807843
0.000000 0.019608 0.117647
0.000000 0.039216 0.223039
0.000000 0.057843 0.322549
0.000000 0.076961 0.426961
0.000000 0.094118 0.529412
0.000000 0.113725 0.631863
0.000000 0.162745 0.715686
0.000000 0.243137 0.780392
0.000000 0.313725 0.839216
0.000000 0.058334 0.322549
0.000000 0.074020 0.417157
0.000000 0.093628 0.525490
0.000000 0.113235 0.625980
0.000000 0.158823 0.712255
0.000000 0.237255 0.775000
0.000000 0.312745 0.838236
0.000000 0.384314 0.898039
0.000000 0.465687 0.963726
0.000000 0.093137 0.523039
0.000000 0.112745 0.623529
0.000000 0.156863 0.710784
0.000000 0.233333 0.771569
0.000000 0.307843 0.834314
0.000000 0.382353 0.896078
0.000000 0.462745 0.960785
0.000000 0.543137 0.993137
0.000000 0.634314 0.984314
0.000000 0.152941 0.709804
0.000000 0.232353 0.771078
0.000000 0.303921 0.830392
0.000000 0.381373 0.895098
0.000000 0.462746 0.960784
0.000000 0.540686 0.993627
0.000000 0.633334 0.984314
0.000000 0.753431 0.932353
0.024510 0.905392 0.769608
0.000000 0.301960 0.829412
0.000000 0.379412 0.893627
0.000000 0.456863 0.954902
0.000000 0.539215 0.994117
0.000000 0.625490 0.984314
0.000000 0.749019 0.935294
0.018628 0.896569 0.788726
0.178431 0.974510 0.474510
0.478431 0.988235 0.156863
0.000000 0.453922 0.951961
0.000000 0.532353 0.996078
0.000000 0.624020 0.984314
0.000000 0.747059 0.936764
0.015686 0.892157 0.798039
0.175000 0.974020 0.479412
0.462255 0.990686 0.165686
0.856372 0.913235 0.024510
0.957843 0.758823 0.003922
0.000000 0.622549 0.984314
0.000000 0.743137 0.939706
0.011765 0.886275 0.810785
0.162745 0.973530 0.499020
0.456863 0.991177 0.168627
0.837255 0.920588 0.028431
0.955882 0.759803 0.002942
0.993627 0.476961 0.013235
1.000000 0.207843 0.068628
0.012745 0.887745 0.808334
0.147549 0.973039 0.523529
0.429902 0.992647 0.182353
0.832843 0.922059 0.029412
0.953921 0.766666 0.003922
0.992647 0.505392 0.012255
1.000000 0.204412 0.069608
1.000000 0.026470 0.223039
1.000000 0.027941 0.462255
0.435294 0.992157 0.180392
0.799020 0.934804 0.035784
0.950980 0.773529 0.004902
0.992157 0.521569 0.011765
1.000000 0.225980 0.065196
1.000000 0.035294 0.207843
1.000000 0.027451 0.458824
1.000000 0.063235 0.701470
1.000000 0.329412 0.843137
0.000000 0.027451 0.154902
0.000000 0.046569 0.257353
0.000000 0.065687 0.365686
0.000000 0.082353 0.466667
0.000000 0.101961 0.566666
0.000000 0.121569 0.670588
0.000000 0.192157 0.741176
0.000000 0.267647 0.800980
0.000000 0.345098 0.866667
0.000000 0.062745 0.355392
0.000000 0.081863 0.463726
0.000000 0.101471 0.565686
0.000000 0.121079 0.668137
0.000000 0.187255 0.736764
0.000000 0.265687 0.799020
0.000000 0.338235 0.859804
0.000000 0.419118 0.925000
0.000000 0.496078 0.986765
0.000000 0.100981 0.558823
0.000000 0.120588 0.665686
0.000000 0.180392 0.730392
0.000000 0.261765 0.796078
0.000000 0.335294 0.856863
0.000000 0.414706 0.921569
0.000000 0.490196 0.983333
0.000000 0.581373 0.989216
0.000000 0.667647 0.980392
0.000000 0.181373 0.731863
0.000000 0.261765 0.795588
0.000000 0.334314 0.855882
0.000000 0.415196 0.922549
0.000000 0.487255 0.981373
0.000000 0.576961 0.990686
0.000000 0.668137 0.980392
0.000000 0.820098 0.886765
0.048039 0.944608 0.692647
0.000000 0.333334 0.854902
0.000000 0.406863 0.916667
0.000000 0.486274 0.980393
0.000000 0.569608 0.992157
0.000000 0.664706 0.980392
0.000000 0.815196 0.889706
0.047058 0.943137 0.696079
0.269608 0.988725 0.331863
0.625490 0.980392 0.078432
0.000000 0.485294 0.979412
0.000000 0.567647 0.992157
0.000000 0.661274 0.980392
0.000000 0.801961 0.898529
0.046078 0.941667 0.699510
0.251961 0.985784 0.361765
0.620098 0.980392 0.081373
0.914706 0.862745 0.013725
0.980392 0.680883 0.000000
0.000000 0.661765 0.980392
0.000000 0.796079 0.902941
0.043137 0.937255 0.708824
0.254902 0.986275 0.355883
0.614706 0.980392 0.084314
0.914706 0.863236 0.014216
0.981372 0.677451 0.000981
1.000000 0.377451 0.030392
1.000000 0.091177 0.102941
0.037255 0.928431 0.726961
0.242647 0.984314 0.376471
0.598530 0.981372 0.092157
0.910784 0.872059 0.015196
0.976471 0.701471 0.000000
1.000000 0.384804 0.028922
1.000000 0.108333 0.096569
1.000000 0.004902 0.304902
1.000000 0.043627 0.568137
0.560784 0.984314 0.109804
0.908824 0.876471 0.015686
0.972549 0.717647 0.000000
1.000000 0.392157 0.027451
1.000000 0.109804 0.094117
1.000000 0.003922 0.298039
1.000000 0.040196 0.544118
1.000000 0.110784 0.789706
1.000000 0.460784 0.872549
0.000000 0.035294 0.192157
0.000000 0.054412 0.300490
0.000000 0.070588 0.400000
0.000000 0.090196 0.509804
0.000000 0.109804 0.610784
0.000000 0.145098 0.701961
0.000000 0.221569 0.762745
0.000000 0.299019 0.827941
0.000000 0.368627 0.886275
0.000000 0.070588 0.398529
0.000000 0.089706 0.500980
0.000000 0.108823 0.603431
0.000000 0.141177 0.698530
0.000000 0.218628 0.759804
0.000000 0.292157 0.821569
0.000000 0.369608 0.886275
0.000000 0.449019 0.947549
0.000000 0.524019 0.996078
0.000000 0.108823 0.604902
0.000000 0.134314 0.692157
0.000000 0.214706 0.757843
0.000000 0.291176 0.820588
0.000000 0.364706 0.882353
0.000000 0.444117 0.944608
0.000000 0.524509 0.996078
0.000000 0.609804 0.987745
0.000000 0.721569 0.954902
0.000000 0.214706 0.755882
0.000000 0.287255 0.816667
0.000000 0.363725 0.881373
0.000000 0.440196 0.942157
0.000000 0.519607 0.996078
0.000000 0.607353 0.988235
0.000000 0.719608 0.955882
0.004902 0.875981 0.832353
0.130882 0.971078 0.548039
0.000000 0.360784 0.878431
0.000000 0.439215 0.941176
0.000000 0.516176 0.996078
0.000000 0.605882 0.988235
0.000000 0.717647 0.956863
0.001961 0.866667 0.849019
0.120588 0.969607 0.562745
0.375981 0.995588 0.209313
0.784314 0.939215 0.037255
0.000000 0.508823 0.996078
0.000000 0.603431 0.988235
0.000000 0.704902 0.963725
0.001471 0.864706 0.852451
0.101961 0.966666 0.592157
0.365196 0.996078 0.214706
0.774510 0.942157 0.038235
0.940196 0.798039 0.007843
0.988235 0.556863 0.007843
0.000000 0.699020 0.967647
0.000981 0.860785 0.857353
0.102941 0.966667 0.592157
0.359804 0.996078 0.217647
0.754902 0.948039 0.042157
0.939216 0.800000 0.007843
0.989215 0.574510 0.008823
1.000000 0.263235 0.057353
1.000000 0.051471 0.175490
0.093137 0.965196 0.606863
0.350491 0.996078 0.224510
0.730392 0.955392 0.046079
0.935294 0.809314 0.009314
0.988725 0.583333 0.008333
1.000000 0.270588 0.055882
1.000000 0.054412 0.169608
1.000000 0.020588 0.410785
1.000000 0.055882 0.653431
0.725490 0.956863 0.047059
0.929412 0.823529 0.011765
0.987255 0.600981 0.006863
1.000000 0.284804 0.051961
1.000000 0.058824 0.160784
1.000000 0.017157 0.389216
1.000000 0.055883 0.652941
1.000000 0.232843 0.818627
1.000000 0.588235 0.901961
0.000000 0.043137 0.235294
0.000000 0.059804 0.336274
0.000000 0.078431 0.440196
0.000000 0.098039 0.544117
0.000000 0.117647 0.650980
0.000000 0.171569 0.724510
0.000000 0.252941 0.789215
0.000000 0.323530 0.848039
0.000000 0.400000 0.909804
0.000000 0.077941 0.440196
0.000000 0.097549 0.538235
0.000000 0.116667 0.646568
0.000000 0.167647 0.720588
0.000000 0.249019 0.786274
0.000000 0.322549 0.847059
0.000000 0.398039 0.908333
0.000000 0.474510 0.969117
0.000000 0.563235 0.992157
0.000000 0.114706 0.639216
0.000000 0.165686 0.719118
0.000000 0.243137 0.780392
0.000000 0.319608 0.845098
0.000000 0.394118 0.905882
0.000000 0.472549 0.967647
0.000000 0.553922 0.992157
0.000000 0.649019 0.981373
0.000000 0.783334 0.911764
0.000000 0.243137 0.780392
0.000000 0.318627 0.844118
0.000000 0.390196 0.903921
0.000000 0.471569 0.967157
0.000000 0.555882 0.992157
0.000000 0.646568 0.981863
0.000000 0.780393 0.914706
0.033333 0.921078 0.740686
0.222549 0.981372 0.405882
0.000000 0.388235 0.901961
0.000000 0.467647 0.964706
0.000000 0.549019 0.992157
0.000000 0.645098 0.982353
0.000000 0.766667 0.923530
0.030392 0.915686 0.750490
0.210784 0.979412 0.425490
0.541176 0.986275 0.121569
0.901961 0.890196 0.015686
0.000000 0.548039 0.992157
0.000000 0.638236 0.984314
0.000000 0.764216 0.925000
0.029412 0.913725 0.753921
0.200980 0.977941 0.440196
0.536275 0.986765 0.124510
0.889215 0.896078 0.018137
0.966667 0.729412 0.000000
0.997549 0.441667 0.017157
0.000000 0.761765 0.926471
0.023530 0.904902 0.771569
0.191176 0.976471 0.454902
0.515196 0.987255 0.136274
0.886274 0.898039 0.018627
0.964215 0.741666 0.002451
0.997059 0.439216 0.018627
1.000000 0.145098 0.085294
1.000000 0.009804 0.262745
0.195098 0.976961 0.450000
0.488725 0.987745 0.150981
0.872549 0.906862 0.021079
0.962745 0.746078 0.002942
0.996568 0.450490 0.016176
1.000000 0.170098 0.078432
1.000000 0.009314 0.259804
1.000000 0.032843 0.496079
1.000000 0.071078 0.755882
0.851961 0.914706 0.025490
0.959804 0.754902 0.003922
0.995098 0.463725 0.014706
1.000000 0.184314 0.074510
1.000000 0.017647 0.239215
1.000000 0.032353 0.493138
1.000000 0.070588 0.752941
1.000000 0.373039 0.851961
1.000000 0.737255 0.937255
0.000000 0.047549 0.271568
0.000000 0.066667 0.375491
0.000000 0.086275 0.483334
0.000000 0.105882 0.584314
0.000000 0.125491 0.686275
0.000000 0.200000 0.749020
0.000000 0.282353 0.811765
0.000000 0.353921 0.871568
0.000000 0.435294 0.937255
0.000000 0.085785 0.473530
0.000000 0.105392 0.581373
0.000000 0.122549 0.681863
0.000000 0.198039 0.747059
0.000000 0.274510 0.807353
0.000000 0.351961 0.870098
0.000000 0.428431 0.930883
0.000000 0.505882 0.995098
0.000000 0.592157 0.988235
0.000000 0.121569 0.679412
0.000000 0.196078 0.745098
0.000000 0.270588 0.803921
0.000000 0.348039 0.867157
0.000000 0.425490 0.928431
0.000000 0.501961 0.993137
0.000000 0.592157 0.988235
0.000000 0.685294 0.974510
0.000000 0.839216 0.876471
0.000000 0.271569 0.804902
0.000000 0.345098 0.866177
0.000000 0.424510 0.927941
0.000000 0.499019 0.989215
0.000000 0.589216 0.988235
0.000000 0.682843 0.977451
0.000000 0.839216 0.875981
0.069608 0.961274 0.646078
0.307353 0.994608 0.269608
0.000000 0.423530 0.927451
0.000000 0.497059 0.987745
0.000000 0.588236 0.988235
0.000000 0.675490 0.980392
0.000000 0.835294 0.878432
0.069608 0.961274 0.646078
0.303922 0.994117 0.274510
0.691177 0.970588 0.053922
0.927451 0.831372 0.011765
0.000000 0.585294 0.988235
0.000000 0.673529 0.980392
0.000000 0.824510 0.884314
0.056863 0.953431 0.670588
0.300490 0.993627 0.279412
0.661765 0.977451 0.062255
0.926471 0.835294 0.011765
0.982353 0.642647 0.001961
1.000000 0.321568 0.042157
0.000000 0.831373 0.880392
0.057843 0.952451 0.669608
0.291177 0.992157 0.295098
0.661765 0.976471 0.062745
0.926471 0.835294 0.011765
0.982353 0.642157 0.001961
1.000000 0.322059 0.042157
1.000000 0.077941 0.125980
1.000000 0.012745 0.359804
0.273039 0.989215 0.326961
0.646569 0.979412 0.068138
0.919118 0.850980 0.011765
0.980882 0.654902 0.000490
1.000000 0.343137 0.038235
1.000000 0.079412 0.123039
1.000000 0.009314 0.335784
1.000000 0.048039 0.599020
0.996568 0.185294 0.808823
0.917647 0.854902 0.011765
0.980392 0.663236 0.000000
1.000000 0.360784 0.035294
1.000000 0.082353 0.117647
1.000000 0.008333 0.328921
1.000000 0.047059 0.592157
0.999019 0.153921 0.801961
1.000000 0.518627 0.887255
1.000000 0.855392 0.965686
0.000000 0.054902 0.313725
0.000000 0.074510 0.418628
0.000000 0.094118 0.517647
0.000000 0.112255 0.623039
0.000000 0.152941 0.709804
0.000000 0.235294 0.772549
0.000000 0.307843 0.833334
0.000000 0.384314 0.898039
0.000000 0.458824 0.956863
0.000000 0.093628 0.516667
0.000000 0.109804 0.614706
0.000000 0.150000 0.706863
0.000000 0.231373 0.770098
0.000000 0.304902 0.830883
0.000000 0.378432 0.892647
0.000000 0.459804 0.957843
0.000000 0.542647 0.992647
0.000000 0.629902 0.984314
0.000000 0.149019 0.705882
0.000000 0.224510 0.765686
0.000000 0.301960 0.828432
0.000000 0.374510 0.889216
0.000000 0.454902 0.953922
0.000000 0.531372 0.996078
0.000000 0.628432 0.984314
0.000000 0.739215 0.942647
0.017647 0.895098 0.791177
0.000000 0.298039 0.827451
0.000000 0.373529 0.888726
0.000000 0.453922 0.952941
0.000000 0.530392 0.996078
0.000000 0.625490 0.984314
0.000000 0.735294 0.945588
0.016667 0.893628 0.794608
0.168137 0.973039 0.489216
0.462255 0.989706 0.165686
0.000000 0.450980 0.949020
0.000000 0.529411 0.996078
0.000000 0.617647 0.985294
0.000000 0.733333 0.947059
0.011765 0.886275 0.811765
0.152941 0.972549 0.513725
0.446078 0.991177 0.174510
0.823530 0.925490 0.031372
0.952941 0.768627 0.003922
0.000000 0.614706 0.986765
0.000000 0.729411 0.949510
0.009804 0.883334 0.817647
0.150000 0.972549 0.518627
0.413725 0.994117 0.190196
0.818628 0.927451 0.032353
0.954902 0.764705 0.003922
0.992157 0.509804 0.011765
1.000000 0.215686 0.066667
0.005883 0.877451 0.829412
0.143627 0.972059 0.528431
0.402941 0.995098 0.195098
0.813726 0.929411 0.033333
0.949020 0.779411 0.006863
0.992157 0.513726 0.011765
1.000000 0.228431 0.065686
1.000000 0.030882 0.215686
1.000000 0.025490 0.445099
0.397549 0.995588 0.197549
0.803922 0.932843 0.034804
0.946078 0.785784 0.007353
0.990686 0.530883 0.010294
1.000000 0.239706 0.063235
1.000000 0.033823 0.210294
1.000000 0.025000 0.441667
1.000000 0.063235 0.701470
1.000000 0.298530 0.832844
0.945098 0.788235 0.007843
0.988235 0.556863 0.007843
1.000000 0.250980 0.060784
1.000000 0.047059 0.184314
1.000000 0.023529 0.431373
1.000000 0.060294 0.680882
1.000000 0.294118 0.831373
1.000000 0.631863 0.911275
1.000000 1.000000 1.000000
