SDR_heatmap.cube
LUT_3D_SIZE 9
0.000000 0.000000 0.000000
0.000000 0.015686 0.084804
0.000000 0.031373 0.177451
0.000000 0.047059 0.262745
0.000000 0.064706 0.352942
0.000000 0.082353 0.443137
0.000000 0.098039 0.537255
0.000000 0.113725 0.621079
0.000000 0.137255 0.694118
0.000000 0.030883 0.167647
0.000000 0.046569 0.260294
0.000000 0.062745 0.347549
0.000000 0.081863 0.441667
0.000000 0.097549 0.530392
0.000000 0.113235 0.618628
0.000000 0.133823 0.691177
0.000000 0.164706 0.718137
0.000000 0.199020 0.744608
0.000000 0.062745 0.346079
0.000000 0.081372 0.438235
0.000000 0.097059 0.520588
0.000000 0.112255 0.613726
0.000000 0.132353 0.690196
0.000000 0.163725 0.716667
0.000000 0.196078 0.744117
0.000000 0.227451 0.768627
0.000000 0.257844 0.795098
0.000000 0.096569 0.522549
0.000000 0.109804 0.610294
0.000000 0.131863 0.690196
0.000000 0.163235 0.717647
0.000000 0.194608 0.743627
0.000000 0.227451 0.768627
0.000000 0.258333 0.794608
0.000000 0.292647 0.822059
0.000000 0.321569 0.847059
0.000000 0.131373 0.690196
0.000000 0.160784 0.717157
0.000000 0.194117 0.743137
0.000000 0.225980 0.767157
0.000000 0.256863 0.794118
0.000000 0.290196 0.819608
0.000000 0.319608 0.845098
0.000000 0.353431 0.871078
0.000000 0.384314 0.896079
0.000000 0.192157 0.741176
0.000000 0.225000 0.766176
0.000000 0.255392 0.792647
0.000000 0.288726 0.818137
0.000000 0.319118 0.844608
0.000000 0.350490 0.868137
0.000000 0.384314 0.895588
0.000000 0.416176 0.922059
0.000000 0.448529 0.949020
0.000000 0.255883 0.793137
0.000000 0.287255 0.816667
0.000000 0.317647 0.843137
0.000000 0.350000 0.867647
0.000000 0.384314 0.895098
0.000000 0.413726 0.922549
0.000000 0.448039 0.949020
0.000000 0.475980 0.973039
0.000000 0.509804 0.996078
0.000000 0.314705 0.840196
0.000000 0.349020 0.867157
0.000000 0.383333 0.894608
0.000000 0.412255 0.921569
0.000000 0.445588 0.947059
0.000000 0.475000 0.972549
0.000000 0.509804 0.996078
0.000000 0.533823 0.992157
0.000000 0.557353 0.992157
0.000000 0.380392 0.894118
0.000000 0.411275 0.921079
0.000000 0.443137 0.945098
0.000000 0.474510 0.972549
0.000000 0.505882 0.996078
0.000000 0.533333 0.992157
0.000000 0.556863 0.992157
0.000000 0.580392 0.988235
0.000000 0.603922 0.988235
0.000000 0.003922 0.027451
0.000000 0.023039 0.120588
0.000000 0.038726 0.206372
0.000000 0.054902 0.300490
0.000000 0.070588 0.384314
0.000000 0.086275 0.477451
0.000000 0.102941 0.566667
0.000000 0.121569 0.658824
0.000000 0.145098 0.701961
0.000000 0.038726 0.206372
0.000000 0.054412 0.299510
0.000000 0.070098 0.380883
0.000000 0.085785 0.474019
0.000000 0.101961 0.563235
0.000000 0.119118 0.650491
0.000000 0.145588 0.702451
0.000000 0.179412 0.728922
0.000000 0.207353 0.752941
0.000000 0.070098 0.380883
0.000000 0.085295 0.466666
0.000000 0.100981 0.559804
0.000000 0.117647 0.645098
0.000000 0.143627 0.700981
0.000000 0.176961 0.726961
0.000000 0.206863 0.752451
0.000000 0.238726 0.779412
0.000000 0.270588 0.803922
0.000000 0.101961 0.552941
0.000000 0.117647 0.644118
0.000000 0.142647 0.700490
0.000000 0.175000 0.725490
0.000000 0.205882 0.752941
0.000000 0.237745 0.778922
0.000000 0.270588 0.803922
0.000000 0.301961 0.830883
0.000000 0.335784 0.857353
0.000000 0.140686 0.698039
0.000000 0.174020 0.725000
0.000000 0.203922 0.751961
0.000000 0.237255 0.778431
0.000000 0.270098 0.803432
0.000000 0.300000 0.829412
0.000000 0.334313 0.855883
0.000000 0.363235 0.880882
0.000000 0.398039 0.907843
0.000000 0.203922 0.750490
0.000000 0.236275 0.777451
0.000000 0.269608 0.802941
0.000000 0.299510 0.828922
0.000000 0.331372 0.852941
0.000000 0.362255 0.879902
0.000000 0.396568 0.906372
0.000000 0.427451 0.930882
0.000000 0.458334 0.956863
0.000000 0.267647 0.800980
0.000000 0.298529 0.827941
0.000000 0.331373 0.852941
0.000000 0.361764 0.879412
0.000000 0.395098 0.904902
0.000000 0.427451 0.930392
0.000000 0.456863 0.957843
0.000000 0.491176 0.984804
0.000000 0.518628 0.996078
0.000000 0.329902 0.851470
0.000000 0.361274 0.878921
0.000000 0.392157 0.902451
0.000000 0.425980 0.929902
0.000000 0.455392 0.956863
0.000000 0.490196 0.983824
0.000000 0.518137 0.996078
0.000000 0.541666 0.992157
0.000000 0.565196 0.992157
0.000000 0.392157 0.901961
0.000000 0.423529 0.929412
0.000000 0.453921 0.955882
0.000000 0.488726 0.982843
0.000000 0.517647 0.996078
0.000000 0.541176 0.992157
0.000000 0.565686 0.992157
0.000000 0.591667 0.988235
0.000000 0.615686 0.988235
0.000000 0.011765 0.066667
0.000000 0.027451 0.149020
0.000000 0.043137 0.241176
0.000000 0.061275 0.334314
0.000000 0.078431 0.423529
0.000000 0.094118 0.510294
0.000000 0.109804 0.602941
0.000000 0.125980 0.686765
0.000000 0.160784 0.713725
0.000000 0.043137 0.240196
0.000000 0.058334 0.326961
0.000000 0.077451 0.419608
0.000000 0.093628 0.504902
0.000000 0.109314 0.597059
0.000000 0.125490 0.685294
0.000000 0.159313 0.712745
0.000000 0.188235 0.737255
0.000000 0.222549 0.764216
0.000000 0.074510 0.409804
0.000000 0.093137 0.502941
0.000000 0.108823 0.596078
0.000000 0.124510 0.681373
0.000000 0.157843 0.711765
0.000000 0.187255 0.736274
0.000000 0.219608 0.761764
0.000000 0.250490 0.788725
0.000000 0.284314 0.814706
0.000000 0.108823 0.590196
0.000000 0.125000 0.681863
0.000000 0.155882 0.709804
0.000000 0.186765 0.735784
0.000000 0.218628 0.760784
0.000000 0.249510 0.788235
0.000000 0.282353 0.814706
0.000000 0.313725 0.839216
0.000000 0.345098 0.866667
0.000000 0.154902 0.709804
0.000000 0.183824 0.733333
0.000000 0.217647 0.760784
0.000000 0.249020 0.788235
0.000000 0.280392 0.813725
0.000000 0.313725 0.839216
0.000000 0.344117 0.864706
0.000000 0.378431 0.892157
0.000000 0.406863 0.916667
0.000000 0.217157 0.760784
0.000000 0.247059 0.787255
0.000000 0.278921 0.812255
0.000000 0.312745 0.838235
0.000000 0.342647 0.864216
0.000000 0.376961 0.890687
0.000000 0.405392 0.915196
0.000000 0.439706 0.941666
0.000000 0.470588 0.966176
0.000000 0.279411 0.812745
0.000000 0.310784 0.836274
0.000000 0.341176 0.862745
0.000000 0.375981 0.889706
0.000000 0.404902 0.914706
0.000000 0.437745 0.939706
0.000000 0.471569 0.966667
0.000000 0.501961 0.993137
0.000000 0.526471 0.995098
0.000000 0.340686 0.862255
0.000000 0.372549 0.886765
0.000000 0.404412 0.914215
0.000000 0.436274 0.938235
0.000000 0.469608 0.965196
0.000000 0.500000 0.992647
0.000000 0.526470 0.995588
0.000000 0.550000 0.992157
0.000000 0.576961 0.988235
0.000000 0.403922 0.913725
0.000000 0.434804 0.937255
0.000000 0.469608 0.964706
0.000000 0.498039 0.992157
0.000000 0.525490 0.996078
0.000000 0.549020 0.992157
0.000000 0.575490 0.988235
0.000000 0.600000 0.988235
0.000000 0.623529 0.984314
0.000000 0.015686 0.094118
0.000000 0.034804 0.187255
0.000000 0.050980 0.279412
0.000000 0.066667 0.364706
0.000000 0.082353 0.454902
0.000000 0.098039 0.545098
0.000000 0.116176 0.636275
0.000000 0.137745 0.698039
0.000000 0.172549 0.725490
0.000000 0.050490 0.273039
0.000000 0.066177 0.362745
0.000000 0.081863 0.448529
0.000000 0.098039 0.542647
0.000000 0.115686 0.633824
0.000000 0.136765 0.697059
0.000000 0.169117 0.722059
0.000000 0.203432 0.749020
0.000000 0.230883 0.772059
0.000000 0.082353 0.449019
0.000000 0.098039 0.539216
0.000000 0.112745 0.626471
0.000000 0.136274 0.695588
0.000000 0.167647 0.720589
0.000000 0.201471 0.747549
0.000000 0.231373 0.772549
0.000000 0.264706 0.799019
0.000000 0.294118 0.823529
0.000000 0.113725 0.626961
0.000000 0.136765 0.693628
0.000000 0.167157 0.720098
0.000000 0.202451 0.747549
0.000000 0.229902 0.771078
0.000000 0.264216 0.797549
0.000000 0.295098 0.824510
0.000000 0.325980 0.850980
0.000000 0.359314 0.876961
0.000000 0.166666 0.719608
0.000000 0.198529 0.745098
0.000000 0.229412 0.770588
0.000000 0.261275 0.796078
0.000000 0.294118 0.823529
0.000000 0.324020 0.849510
0.000000 0.358824 0.876470
0.000000 0.388725 0.901961
0.000000 0.421569 0.927451
0.000000 0.227451 0.768627
0.000000 0.260294 0.796078
0.000000 0.293137 0.822549
0.000000 0.323039 0.848529
0.000000 0.358333 0.875980
0.000000 0.385784 0.899510
0.000000 0.420588 0.926471
0.000000 0.451470 0.950981
0.000000 0.483824 0.977941
0.000000 0.292647 0.822059
0.000000 0.322059 0.847549
0.000000 0.356863 0.874510
0.000000 0.385294 0.899020
0.000000 0.419117 0.925000
0.000000 0.451960 0.950981
0.000000 0.483333 0.977451
0.000000 0.511275 0.996078
0.000000 0.538235 0.992157
0.000000 0.353921 0.871568
0.000000 0.384804 0.898039
0.000000 0.416666 0.922549
0.000000 0.450980 0.949510
0.000000 0.480882 0.975000
0.000000 0.510294 0.996078
0.000000 0.534804 0.992157
0.000000 0.561274 0.992157
0.000000 0.586765 0.988235
0.000000 0.415686 0.921569
0.000000 0.450490 0.949020
0.000000 0.478431 0.972549
0.000000 0.509804 0.996078
0.000000 0.533333 0.992157
0.000000 0.560784 0.992157
0.000000 0.585294 0.988235
0.000000 0.607843 0.988235
0.000000 0.631373 0.984314
0.000000 0.023529 0.133333
0.000000 0.042647 0.225980
0.000000 0.054902 0.309804
0.000000 0.073039 0.400981
0.000000 0.090196 0.490196
0.000000 0.105882 0.584314
0.000000 0.122549 0.669608
0.000000 0.152941 0.709804
0.000000 0.180392 0.733333
0.000000 0.054902 0.308824
0.000000 0.070588 0.394607
0.000000 0.089216 0.486274
0.000000 0.105392 0.577451
0.000000 0.121569 0.665687
0.000000 0.150000 0.706863
0.000000 0.181372 0.732843
0.000000 0.213235 0.758333
0.000000 0.246569 0.783824
0.000000 0.089216 0.485294
0.000000 0.104902 0.569118
0.000000 0.120588 0.661765
0.000000 0.148040 0.704902
0.000000 0.179412 0.731372
0.000000 0.212255 0.757353
0.000000 0.245098 0.783333
0.000000 0.274020 0.807353
0.000000 0.308824 0.834314
0.000000 0.121569 0.658824
0.000000 0.147549 0.704412
0.000000 0.179412 0.730392
0.000000 0.210294 0.755392
0.000000 0.245098 0.782353
0.000000 0.273039 0.806373
0.000000 0.307843 0.833333
0.000000 0.337745 0.859314
0.000000 0.371078 0.886275
0.000000 0.180392 0.729412
0.000000 0.209314 0.754902
0.000000 0.242157 0.780392
0.000000 0.272549 0.805883
0.000000 0.307843 0.833333
0.000000 0.337255 0.858824
0.000000 0.369607 0.886275
0.000000 0.401961 0.911764
0.000000 0.431373 0.937255
0.000000 0.240686 0.780392
0.000000 0.272059 0.805392
0.000000 0.303921 0.831373
0.000000 0.337255 0.858824
0.000000 0.366667 0.884314
0.000000 0.401471 0.911274
0.000000 0.430392 0.935294
0.000000 0.464216 0.962255
0.000000 0.494118 0.988235
0.000000 0.302941 0.831373
0.000000 0.336765 0.858334
0.000000 0.366667 0.883333
0.000000 0.399510 0.909313
0.000000 0.429412 0.934313
0.000000 0.463726 0.961765
0.000000 0.495098 0.986275
0.000000 0.522549 0.996078
0.000000 0.546079 0.992157
0.000000 0.365196 0.882843
0.000000 0.398529 0.908333
0.000000 0.427941 0.932843
0.000000 0.461765 0.959804
0.000000 0.494118 0.984804
0.000000 0.520098 0.996078
0.000000 0.546079 0.992157
0.000000 0.572549 0.991667
0.000000 0.596078 0.988235
0.000000 0.427451 0.933333
0.000000 0.458824 0.956863
0.000000 0.493138 0.984314
0.000000 0.517647 0.996078
0.000000 0.545098 0.992157
0.000000 0.570098 0.992157
0.000000 0.596078 0.988235
0.000000 0.616176 0.984314
0.000000 0.643137 0.984314
0.000000 0.031373 0.168627
0.000000 0.047059 0.254902
0.000000 0.062745 0.346079
0.000000 0.078431 0.431373
0.000000 0.098039 0.525490
0.000000 0.111274 0.614706
0.000000 0.133333 0.690196
0.000000 0.161274 0.717647
0.000000 0.196078 0.745098
0.000000 0.062255 0.340687
0.000000 0.077941 0.428922
0.000000 0.097059 0.522059
0.000000 0.109804 0.610294
0.000000 0.130882 0.689706
0.000000 0.160784 0.717157
0.000000 0.195098 0.744118
0.000000 0.226961 0.768137
0.000000 0.257844 0.795098
0.000000 0.094118 0.514706
0.000000 0.109804 0.607843
0.000000 0.128432 0.689216
0.000000 0.159804 0.715686
0.000000 0.192647 0.741667
0.000000 0.226470 0.767647
0.000000 0.254902 0.792157
0.000000 0.289706 0.819118
0.000000 0.318137 0.843628
0.000000 0.127941 0.688726
0.000000 0.160294 0.715686
0.000000 0.191176 0.740196
0.000000 0.225980 0.767157
0.000000 0.253431 0.790686
0.000000 0.288726 0.818137
0.000000 0.318628 0.844118
0.000000 0.351471 0.869118
0.000000 0.384314 0.894118
0.000000 0.190196 0.739216
0.000000 0.223039 0.764216
0.000000 0.252941 0.790196
0.000000 0.287745 0.817157
0.000000 0.315686 0.841176
0.000000 0.350490 0.868137
0.000000 0.382353 0.895098
0.000000 0.413235 0.921569
0.000000 0.445098 0.947059
0.000000 0.252451 0.789706
0.000000 0.285785 0.815686
0.000000 0.315196 0.840686
0.000000 0.347549 0.866667
0.000000 0.381863 0.894118
0.000000 0.413235 0.921569
0.000000 0.444608 0.946569
0.000000 0.475000 0.972549
0.000000 0.507353 0.996078
0.000000 0.314705 0.840196
0.000000 0.347059 0.867647
0.000000 0.380392 0.893137
0.000000 0.410294 0.919118
0.000000 0.444118 0.946078
0.000000 0.473039 0.970098
0.000000 0.506863 0.996078
0.000000 0.530882 0.992157
0.000000 0.556863 0.992157
0.000000 0.380882 0.894118
0.000000 0.407843 0.917647
0.000000 0.442647 0.944608
0.000000 0.471568 0.969117
0.000000 0.504412 0.994117
0.000000 0.529902 0.992157
0.000000 0.557353 0.992157
0.000000 0.580882 0.988235
0.000000 0.604412 0.988235
0.000000 0.439216 0.941176
0.000000 0.470588 0.968137
0.000000 0.503431 0.993627
0.000000 0.529412 0.992157
0.000000 0.554902 0.992157
0.000000 0.580392 0.988235
0.000000 0.601471 0.988235
0.000000 0.627941 0.984314
0.000000 0.654902 0.984314
0.000000 0.036275 0.199019
0.000000 0.054412 0.289216
0.000000 0.070588 0.378432
0.000000 0.086275 0.470588
0.000000 0.101961 0.558824
0.000000 0.117647 0.647059
0.000000 0.142157 0.699019
0.000000 0.176961 0.725980
0.000000 0.207843 0.752941
0.000000 0.070098 0.375000
0.000000 0.085785 0.468137
0.000000 0.101471 0.550980
0.000000 0.117157 0.643138
0.000000 0.141666 0.699019
0.000000 0.175490 0.725000
0.000000 0.204902 0.752451
0.000000 0.239216 0.779902
0.000000 0.270098 0.803432
0.000000 0.100981 0.550980
0.000000 0.116667 0.639216
0.000000 0.140196 0.697059
0.000000 0.174020 0.724510
0.000000 0.203922 0.751961
0.000000 0.235785 0.776961
0.000000 0.269608 0.802941
0.000000 0.300000 0.829412
0.000000 0.332353 0.853921
0.000000 0.139706 0.698039
0.000000 0.172059 0.725000
0.000000 0.203922 0.751471
0.000000 0.234804 0.775980
0.000000 0.269118 0.802451
0.000000 0.299019 0.828432
0.000000 0.332843 0.854412
0.000000 0.361764 0.879412
0.000000 0.394608 0.904412
0.000000 0.203922 0.750000
0.000000 0.233333 0.774510
0.000000 0.267647 0.800980
0.000000 0.296569 0.825980
0.000000 0.331372 0.852941
0.000000 0.360784 0.878431
0.000000 0.394117 0.903922
0.000000 0.427451 0.929902
0.000000 0.456863 0.956863
0.000000 0.266667 0.800000
0.000000 0.295588 0.825000
0.000000 0.329412 0.851961
0.000000 0.360784 0.878431
0.000000 0.393137 0.902941
0.000000 0.425000 0.929412
0.000000 0.455882 0.956863
0.000000 0.488236 0.981863
0.000000 0.517647 0.996078
0.000000 0.327451 0.851961
0.000000 0.360294 0.877941
0.000000 0.392157 0.902941
0.000000 0.424509 0.929412
0.000000 0.453921 0.954902
0.000000 0.488236 0.981372
0.000000 0.518628 0.996078
0.000000 0.541666 0.992157
0.000000 0.565686 0.992157
0.000000 0.389215 0.902451
0.000000 0.423529 0.928922
0.000000 0.452451 0.953922
0.000000 0.486765 0.980882
0.000000 0.514706 0.996078
0.000000 0.541176 0.992157
0.000000 0.565196 0.992157
0.000000 0.589215 0.988235
0.000000 0.612745 0.987745
0.000000 0.450980 0.952941
0.000000 0.485785 0.979902
0.000000 0.512745 0.996078
0.000000 0.539706 0.992157
0.000000 0.564706 0.992157
0.000000 0.588235 0.988235
0.000000 0.612745 0.988235
0.000000 0.639216 0.984314
0.000000 0.662745 0.980392
0.000000 0.043137 0.235294
0.000000 0.058824 0.322549
0.000000 0.074510 0.409804
0.000000 0.092647 0.502941
0.000000 0.109804 0.592157
0.000000 0.125490 0.681372
0.000000 0.157843 0.710784
0.000000 0.188235 0.737255
0.000000 0.219608 0.760784
0.000000 0.074510 0.410785
0.000000 0.090686 0.498039
0.000000 0.108823 0.588726
0.000000 0.125000 0.677941
0.000000 0.156373 0.709804
0.000000 0.185294 0.734804
0.000000 0.219608 0.761274
0.000000 0.247549 0.787745
0.000000 0.281863 0.815196
0.000000 0.106372 0.582353
0.000000 0.124510 0.674510
0.000000 0.154902 0.708824
0.000000 0.183334 0.733333
0.000000 0.216667 0.759804
0.000000 0.247549 0.787255
0.000000 0.280392 0.813725
0.000000 0.312745 0.838236
0.000000 0.344118 0.865686
0.000000 0.153431 0.709804
0.000000 0.182843 0.733333
0.000000 0.215196 0.759804
0.000000 0.247059 0.786765
0.000000 0.280392 0.813725
0.000000 0.312255 0.837745
0.000000 0.342157 0.863725
0.000000 0.375490 0.889216
0.000000 0.406373 0.916176
0.000000 0.213725 0.758823
0.000000 0.246569 0.785784
0.000000 0.277451 0.810785
0.000000 0.311764 0.837255
0.000000 0.339706 0.861275
0.000000 0.374510 0.888235
0.000000 0.404902 0.914705
0.000000 0.437745 0.939706
0.000000 0.470588 0.965196
0.000000 0.275980 0.809314
0.000000 0.309804 0.835294
0.000000 0.338725 0.860294
0.000000 0.374020 0.887745
0.000000 0.403922 0.913725
0.000000 0.436765 0.938725
0.000000 0.468137 0.965686
0.000000 0.499510 0.992157
0.000000 0.525490 0.996078
0.000000 0.338235 0.859804
0.000000 0.373039 0.887255
0.000000 0.404412 0.914215
0.000000 0.434804 0.938235
0.000000 0.467647 0.965196
0.000000 0.499020 0.992157
0.000000 0.526470 0.995098
0.000000 0.550490 0.992157
0.000000 0.574020 0.988235
0.000000 0.403922 0.913725
0.000000 0.432353 0.937745
0.000000 0.466177 0.963725
0.000000 0.497059 0.990686
0.000000 0.525490 0.996078
0.000000 0.549510 0.992157
0.000000 0.574020 0.988235
0.000000 0.600490 0.988235
0.000000 0.623529 0.984314
0.000000 0.466667 0.964706
0.000000 0.494118 0.988235
0.000000 0.524510 0.996078
0.000000 0.549020 0.992157
0.000000 0.572549 0.988235
0.000000 0.596568 0.988235
0.000000 0.623529 0.984314
0.000000 0.647059 0.984314
0.000000 0.670588 0.980392
0.000000 0.050980 0.274510
0.000000 0.066667 0.356863
0.000000 0.082353 0.449019
0.000000 0.098039 0.537255
0.000000 0.113725 0.631373
0.000000 0.137255 0.694118
0.000000 0.168627 0.721569
0.000000 0.200490 0.745588
0.000000 0.231373 0.772549
0.000000 0.081863 0.441666
0.000000 0.097549 0.534804
0.000000 0.113235 0.618628
0.000000 0.136765 0.693628
0.000000 0.166176 0.719608
0.000000 0.199510 0.745098
0.000000 0.228432 0.769607
0.000000 0.262745 0.796568
0.000000 0.293628 0.823039
0.000000 0.112745 0.617647
0.000000 0.135784 0.693137
0.000000 0.163725 0.717647
0.000000 0.198039 0.744117
0.000000 0.227451 0.768627
0.000000 0.261765 0.796078
0.000000 0.293137 0.822549
0.000000 0.324510 0.850000
0.000000 0.355882 0.873530
0.000000 0.163235 0.717647
0.000000 0.195588 0.744608
0.000000 0.227451 0.768627
0.000000 0.261275 0.796078
0.000000 0.292647 0.822059
0.000000 0.323039 0.848529
0.000000 0.356373 0.874019
0.000000 0.386765 0.900490
0.000000 0.419608 0.925490
0.000000 0.227451 0.768627
0.000000 0.258334 0.795588
0.000000 0.292157 0.821568
0.000000 0.321569 0.847059
0.000000 0.354902 0.872549
0.000000 0.385784 0.899510
0.000000 0.417647 0.923530
0.000000 0.450980 0.949510
0.000000 0.480392 0.974510
0.000000 0.290196 0.819608
0.000000 0.319118 0.844608
0.000000 0.353432 0.871079
0.000000 0.384314 0.896569
0.000000 0.417157 0.923039
0.000000 0.448529 0.949020
0.000000 0.479902 0.974020
0.000000 0.510294 0.996078
0.000000 0.534804 0.992157
0.000000 0.353921 0.871568
0.000000 0.384314 0.895098
0.000000 0.415686 0.922549
0.000000 0.448039 0.950000
0.000000 0.479411 0.973530
0.000000 0.510784 0.996078
0.000000 0.535294 0.992157
0.000000 0.558824 0.992157
0.000000 0.585294 0.988235
0.000000 0.412745 0.922059
0.000000 0.447059 0.948530
0.000000 0.477941 0.973039
0.000000 0.509804 0.996078
0.000000 0.533823 0.992157
0.000000 0.557353 0.992157
0.000000 0.584804 0.988235
0.000000 0.608333 0.988235
0.000000 0.631863 0.984314
0.000000 0.474510 0.972549
0.000000 0.509314 0.996078
0.000000 0.533333 0.992157
0.000000 0.556863 0.992157
0.000000 0.582353 0.988235
0.000000 0.607843 0.988235
0.000000 0.631373 0.984314
0.000000 0.655392 0.984314
0.000000 0.682353 0.980392
