SDR_heatmap.cube
LUT_3D_SIZE 5
0.000000 0.000000 0.000000
0.000000 0.031373 0.177451
0.000000 0.064706 0.352942
0.000000 0.098039 0.537255
0.000000 0.137255 0.694118
0.000000 0.062745 0.346079
0.000000 0.097059 0.520588
0.000000 0.132353 0.690196
0.000000 0.196078 0.744117
0.000000 0.257844 0.795098
0.000000 0.131373 0.690196
0.000000 0.194117 0.743137
0.000000 0.256863 0.794118
0.000000 0.319608 0.845098
0.000000 0.384314 0.896079
0.000000 0.255883 0.793137
0.000000 0.317647 0.843137
0.000000 0.384314 0.895098
0.000000 0.448039 0.949020
0.000000 0.509804 0.996078
0.000000 0.380392 0.894118
0.000000 0.443137 0.945098
0.000000 0.505882 0.996078
0.000000 0.556863 0.992157
0.000000 0.603922 0.988235
0.000000 0.011765 0.066667
0.000000 0.043137 0.241176
0.000000 0.078431 0.423529
0.000000 0.109804 0.602941
0.000000 0.160784 0.713725
0.000000 0.074510 0.409804
0.000000 0.108823 0.596078
0.000000 0.157843 0.711765
0.000000 0.219608 0.761764
0.000000 0.284314 0.814706
0.000000 0.154902 0.709804
0.000000 0.217647 0.760784
0.000000 0.280392 0.813725
0.000000 0.344117 0.864706
0.000000 0.406863 0.916667
0.000000 0.279411 0.812745
0.000000 0.341176 0.862745
0.000000 0.404902 0.914706
0.000000 0.471569 0.966667
0.000000 0.526471 0.995098
0.000000 0.403922 0.913725
0.000000 0.469608 0.964706
0.000000 0.525490 0.996078
0.000000 0.575490 0.988235
0.000000 0.623529 0.984314
0.000000 0.023529 0.133333
0.000000 0.054902 0.309804
0.000000 0.090196 0.490196
0.000000 0.122549 0.669608
0.000000 0.180392 0.733333
0.000000 0.089216 0.485294
0.000000 0.120588 0.661765
0.000000 0.179412 0.731372
0.000000 0.245098 0.783333
0.000000 0.308824 0.834314
0.000000 0.180392 0.729412
0.000000 0.242157 0.780392
0.000000 0.307843 0.833333
0.000000 0.369607 0.886275
0.000000 0.431373 0.937255
0.000000 0.302941 0.831373
0.000000 0.366667 0.883333
0.000000 0.429412 0.934313
0.000000 0.495098 0.986275
0.000000 0.546079 0.992157
0.000000 0.427451 0.933333
0.000000 0.493138 0.984314
0.000000 0.545098 0.992157
0.000000 0.596078 0.988235
0.000000 0.643137 0.984314
0.000000 0.036275 0.199019
0.000000 0.070588 0.378432
0.000000 0.101961 0.558824
0.000000 0.142157 0.699019
0.000000 0.207843 0.752941
0.000000 0.100981 0.550980
0.000000 0.140196 0.697059
0.000000 0.203922 0.751961
0.000000 0.269608 0.802941
0.000000 0.332353 0.853921
0.000000 0.203922 0.750000
0.000000 0.267647 0.800980
0.000000 0.331372 0.852941
0.000000 0.394117 0.903922
0.000000 0.456863 0.956863
0.000000 0.327451 0.851961
0.000000 0.392157 0.902941
0.000000 0.453921 0.954902
0.000000 0.518628 0.996078
0.000000 0.565686 0.992157
0.000000 0.450980 0.952941
0.000000 0.512745 0.996078
0.000000 0.564706 0.992157
0.000000 0.612745 0.988235
0.000000 0.662745 0.980392
0.000000 0.050980 0.274510
0.000000 0.082353 0.449019
0.000000 0.113725 0.631373
0.000000 0.168627 0.721569
0.000000 0.231373 0.772549
0.000000 0.112745 0.617647
0.000000 0.163725 0.717647
0.000000 0.227451 0.768627
0.000000 0.293137 0.822549
0.000000 0.355882 0.873530
0.000000 0.227451 0.768627
0.000000 0.292157 0.821568
0.000000 0.354902 0.872549
0.000000 0.417647 0.923530
0.000000 0.480392 0.974510
0.000000 0.353921 0.871568
0.000000 0.415686 0.922549
0.000000 0.479411 0.973530
0.000000 0.535294 0.992157
0.000000 0.585294 0.988235
0.000000 0.474510 0.972549
0.000000 0.533333 0.992157
0.000000 0.582353 0.988235
0.000000 0.631373 0.984314
0.000000 0.682353 0.980392
