SDR_heatmap.cube
LUT_3D_SIZE 33
0.000000 0.000000 0.000000
0.000000 0.003922 0.019608
0.000000 0.007843 0.039216
0.000000 0.011765 0.059682
0.000000 0.015686 0.084804
0.000000 0.019608 0.106005
0.000000 0.023529 0.131127
0.000000 0.027451 0.152329
0.000000 0.031373 0.177451
0.000000 0.035294 0.196078
0.000000 0.039216 0.215686
0.000000 0.043137 0.243137
0.000000 0.047059 0.262745
0.000000 0.051348 0.283088
0.000000 0.054902 0.309804
0.000000 0.058947 0.329657
0.000000 0.064706 0.352942
0.000000 0.070588 0.376471
0.000000 0.072304 0.399510
0.000000 0.078063 0.422426
0.000000 0.082353 0.443137
0.000000 0.085662 0.468750
0.000000 0.090196 0.490196
0.000000 0.094118 0.515073
0.000000 0.098039 0.537255
0.000000 0.101961 0.552941
0.000000 0.105882 0.574755
0.000000 0.109804 0.597304
0.000000 0.113725 0.621079
0.000000 0.117647 0.643873
0.000000 0.121814 0.667402
0.000000 0.127574 0.688358
0.000000 0.137255 0.694118
0.000000 0.007843 0.042892
0.000000 0.011765 0.060417
0.000000 0.015686 0.083701
0.000000 0.017524 0.103309
0.000000 0.023529 0.127083
0.000000 0.027451 0.148897
0.000000 0.030638 0.172671
0.000000 0.036397 0.195220
0.000000 0.041054 0.219240
0.000000 0.043995 0.241544
0.000000 0.048897 0.265809
0.000000 0.052818 0.286029
0.000000 0.054902 0.305637
0.000000 0.060662 0.328922
0.000000 0.064583 0.352696
0.000000 0.068505 0.370466
0.000000 0.072426 0.399755
0.000000 0.076348 0.417279
0.000000 0.080269 0.440564
0.000000 0.084191 0.463603
0.000000 0.088113 0.486887
0.000000 0.093505 0.510171
0.000000 0.098039 0.533456
0.000000 0.101103 0.556740
0.000000 0.105882 0.578064
0.000000 0.109804 0.601348
0.000000 0.111642 0.620956
0.000000 0.117647 0.642892
0.000000 0.122059 0.663971
0.000000 0.127328 0.684926
0.000000 0.135171 0.692280
0.000000 0.141176 0.699877
0.000000 0.150858 0.707720
0.000000 0.015686 0.085540
0.000000 0.019363 0.106985
0.000000 0.023284 0.132108
0.000000 0.027451 0.148530
0.000000 0.031128 0.168137
0.000000 0.035049 0.195098
0.000000 0.038971 0.214460
0.000000 0.043137 0.237010
0.000000 0.046814 0.260049
0.000000 0.051838 0.283578
0.000000 0.054902 0.306618
0.000000 0.059437 0.330147
0.000000 0.065196 0.353187
0.000000 0.070343 0.375736
0.000000 0.070588 0.395343
0.000000 0.074633 0.411642
0.000000 0.082108 0.442402
0.000000 0.086030 0.469363
0.000000 0.089951 0.488970
0.000000 0.093873 0.505392
0.000000 0.097794 0.529412
0.000000 0.101716 0.551961
0.000000 0.105637 0.575735
0.000000 0.109559 0.597794
0.000000 0.113480 0.622059
0.000000 0.117402 0.644363
0.000000 0.121569 0.666177
0.000000 0.125490 0.685785
0.000000 0.136765 0.693873
0.000000 0.140931 0.697794
0.000000 0.149020 0.705882
0.000000 0.158701 0.711887
0.000000 0.164461 0.717647
0.000000 0.023529 0.126348
0.000000 0.027451 0.149632
0.000000 0.031128 0.172916
0.000000 0.036887 0.196201
0.000000 0.040809 0.219485
0.000000 0.043137 0.238480
0.000000 0.048652 0.262868
0.000000 0.052573 0.280882
0.000000 0.054902 0.305147
0.000000 0.059682 0.326471
0.000000 0.064338 0.348530
0.000000 0.068260 0.370711
0.000000 0.072181 0.394853
0.000000 0.076103 0.417279
0.000000 0.080024 0.439338
0.000000 0.083946 0.463603
0.000000 0.087868 0.483211
0.000000 0.093995 0.510416
0.000000 0.098039 0.530270
0.000000 0.099632 0.553064
0.000000 0.105882 0.577329
0.000000 0.109804 0.595343
0.000000 0.111397 0.618628
0.000000 0.116789 0.640687
0.000000 0.122549 0.664951
0.000000 0.127083 0.685662
0.000000 0.134926 0.692524
0.000000 0.141421 0.699632
0.000000 0.150613 0.707475
0.000000 0.158456 0.712990
0.000000 0.163970 0.719240
0.000000 0.174142 0.725490
0.000000 0.180392 0.731005
0.000000 0.030883 0.167647
0.000000 0.034804 0.190931
0.000000 0.038971 0.213970
0.000000 0.043137 0.237500
0.000000 0.046569 0.260294
0.000000 0.052328 0.284069
0.000000 0.054902 0.306863
0.000000 0.058824 0.328432
0.000000 0.062745 0.347549
0.000000 0.070098 0.374020
0.000000 0.070588 0.393627
0.000000 0.075123 0.412623
0.000000 0.081863 0.441667
0.000000 0.082721 0.458946
0.000000 0.088481 0.484068
0.000000 0.093628 0.504902
0.000000 0.097549 0.530392
0.000000 0.101471 0.551716
0.000000 0.105392 0.571569
0.000000 0.109436 0.598284
0.000000 0.113235 0.618628
0.000000 0.117157 0.644853
0.000000 0.121079 0.664216
0.000000 0.125490 0.685294
0.000000 0.133823 0.691177
0.000000 0.140073 0.697549
0.000000 0.149265 0.706127
0.000000 0.158946 0.712377
0.000000 0.164706 0.718137
0.000000 0.174387 0.725000
0.000000 0.180392 0.732843
0.000000 0.187745 0.736765
0.000000 0.199020 0.744608
0.000000 0.040564 0.214583
0.000000 0.043137 0.233823
0.000000 0.047059 0.257598
0.000000 0.052328 0.280392
0.000000 0.054902 0.303186
0.000000 0.060172 0.326961
0.000000 0.064093 0.349510
0.000000 0.068015 0.370956
0.000000 0.071936 0.395833
0.000000 0.075858 0.415809
0.000000 0.079779 0.435417
0.000000 0.083701 0.457720
0.000000 0.087623 0.482475
0.000000 0.091544 0.501838
0.000000 0.098039 0.529534
0.000000 0.099387 0.548162
0.000000 0.103921 0.572672
0.000000 0.109681 0.594608
0.000000 0.111152 0.618505
0.000000 0.117279 0.641177
0.000000 0.121569 0.661520
0.000000 0.126838 0.686397
0.000000 0.134681 0.691544
0.000000 0.139951 0.699387
0.000000 0.147794 0.704657
0.000000 0.158211 0.711152
0.000000 0.162867 0.718382
0.000000 0.172549 0.724142
0.000000 0.180882 0.730760
0.000000 0.187990 0.737010
0.000000 0.197671 0.745343
0.000000 0.205270 0.751103
0.000000 0.213113 0.758211
0.000000 0.047059 0.261274
0.000000 0.050980 0.280882
0.000000 0.054902 0.299755
0.000000 0.058089 0.325736
0.000000 0.062255 0.345834
0.000000 0.068015 0.367280
0.000000 0.070588 0.392402
0.000000 0.075613 0.413603
0.000000 0.081372 0.438725
0.000000 0.083211 0.459927
0.000000 0.088971 0.485049
0.000000 0.093383 0.504411
0.000000 0.097304 0.524019
0.000000 0.098407 0.544363
0.000000 0.105147 0.571078
0.000000 0.109069 0.590932
0.000000 0.112990 0.615932
0.000000 0.116912 0.637745
0.000000 0.120834 0.660049
0.000000 0.125122 0.683701
0.000000 0.134069 0.691667
0.000000 0.140441 0.697426
0.000000 0.149510 0.706372
0.000000 0.159191 0.712867
0.000000 0.163971 0.717647
0.000000 0.171814 0.724755
0.000000 0.179657 0.731862
0.000000 0.186764 0.736520
0.000000 0.195833 0.744363
0.000000 0.203187 0.750613
0.000000 0.211275 0.756373
0.000000 0.220956 0.762868
0.000000 0.227451 0.768627
0.000000 0.054902 0.304167
0.000000 0.059927 0.325981
0.000000 0.063848 0.350491
0.000000 0.067770 0.368015
0.000000 0.071691 0.389829
0.000000 0.075613 0.409927
0.000000 0.079534 0.434682
0.000000 0.083456 0.456495
0.000000 0.087378 0.479779
0.000000 0.091299 0.502818
0.000000 0.096814 0.526348
0.000000 0.099142 0.549142
0.000000 0.103064 0.570221
0.000000 0.109804 0.594363
0.000000 0.110907 0.613971
0.000000 0.114828 0.635785
0.000000 0.121569 0.661030
0.000000 0.126593 0.681740
0.000000 0.134436 0.691299
0.000000 0.138358 0.698039
0.000000 0.147672 0.704534
0.000000 0.157353 0.710907
0.000000 0.163112 0.718750
0.000000 0.172794 0.724632
0.000000 0.181372 0.730515
0.000000 0.188235 0.737255
0.000000 0.197181 0.745098
0.000000 0.205025 0.750123
0.000000 0.210049 0.755147
0.000000 0.220711 0.761887
0.000000 0.227696 0.768872
0.000000 0.234559 0.775735
0.000000 0.244240 0.781495
0.000000 0.062745 0.346079
0.000000 0.068505 0.368260
0.000000 0.070588 0.392647
0.000000 0.076103 0.414583
0.000000 0.081372 0.438235
0.000000 0.082353 0.456863
0.000000 0.086275 0.476470
0.000000 0.093138 0.501961
0.000000 0.097059 0.520588
0.000000 0.098897 0.544853
0.000000 0.104657 0.567157
0.000000 0.108824 0.591422
0.000000 0.112255 0.613726
0.000000 0.116667 0.637255
0.000000 0.120588 0.660294
0.000000 0.124510 0.681373
0.000000 0.132353 0.690196
0.000000 0.140196 0.697916
0.000000 0.148040 0.704902
0.000000 0.158823 0.712745
0.000000 0.163725 0.716667
0.000000 0.171568 0.724510
0.000000 0.179412 0.729657
0.000000 0.186397 0.736274
0.000000 0.196078 0.744117
0.000000 0.202941 0.750858
0.000000 0.211520 0.756618
0.000000 0.221201 0.763358
0.000000 0.227451 0.768627
0.000000 0.234314 0.775491
0.000000 0.245098 0.783334
0.000000 0.250000 0.787255
0.000000 0.257844 0.795098
0.000000 0.070588 0.386887
0.000000 0.075368 0.410172
0.000000 0.079289 0.433456
0.000000 0.083211 0.456740
0.000000 0.087133 0.480024
0.000000 0.091054 0.502328
0.000000 0.097304 0.526593
0.000000 0.098897 0.546814
0.000000 0.102819 0.566422
0.000000 0.106740 0.587745
0.000000 0.110662 0.609804
0.000000 0.114583 0.634314
0.000000 0.121569 0.660540
0.000000 0.125858 0.680514
0.000000 0.132475 0.691054
0.000000 0.138235 0.698162
0.000000 0.146814 0.703677
0.000000 0.157598 0.710662
0.000000 0.161642 0.717647
0.000000 0.173039 0.725122
0.000000 0.180392 0.730270
0.000000 0.186030 0.735049
0.000000 0.194240 0.742402
0.000000 0.203922 0.749878
0.000000 0.209681 0.754779
0.000000 0.219363 0.761642
0.000000 0.228186 0.769362
0.000000 0.234804 0.775981
0.000000 0.243995 0.781740
0.000000 0.250245 0.789093
0.000000 0.259682 0.796078
0.000000 0.267525 0.800858
0.000000 0.272304 0.805638
0.000000 0.078431 0.428922
0.000000 0.082353 0.453922
0.000000 0.086030 0.475245
0.000000 0.091789 0.498774
0.000000 0.096814 0.521568
0.000000 0.099387 0.545343
0.000000 0.104657 0.567892
0.000000 0.108578 0.589706
0.000000 0.112500 0.613481
0.000000 0.116421 0.636765
0.000000 0.120343 0.655147
0.000000 0.124265 0.675980
0.000000 0.132108 0.690196
0.000000 0.137623 0.696814
0.000000 0.146569 0.703431
0.000000 0.155760 0.709927
0.000000 0.162745 0.716421
0.000000 0.171201 0.724142
0.000000 0.179167 0.729902
0.000000 0.186642 0.736029
0.000000 0.194853 0.743872
0.000000 0.203309 0.751103
0.000000 0.210539 0.755637
0.000000 0.218382 0.760784
0.000000 0.226225 0.767402
0.000000 0.232966 0.774142
0.000000 0.242647 0.781127
0.000000 0.249632 0.787010
0.000000 0.258089 0.794853
0.000000 0.267769 0.801103
0.000000 0.273529 0.806863
0.000000 0.283211 0.814461
0.000000 0.292892 0.822304
0.000000 0.086888 0.480269
0.000000 0.090809 0.499264
0.000000 0.094731 0.520711
0.000000 0.098652 0.541667
0.000000 0.102574 0.565931
0.000000 0.107230 0.588235
0.000000 0.110417 0.610785
0.000000 0.114828 0.634804
0.000000 0.120588 0.657108
0.000000 0.126103 0.680269
0.000000 0.130637 0.690809
0.000000 0.137868 0.698039
0.000000 0.145711 0.702574
0.000000 0.154166 0.710417
0.000000 0.161397 0.717647
0.000000 0.169362 0.722182
0.000000 0.180392 0.730025
0.000000 0.184927 0.733946
0.000000 0.194485 0.742892
0.000000 0.203554 0.749265
0.000000 0.209068 0.754166
0.000000 0.219608 0.761397
0.000000 0.228064 0.769240
0.000000 0.235049 0.776226
0.000000 0.243750 0.781005
0.000000 0.248284 0.788848
0.000000 0.256250 0.792892
0.000000 0.267280 0.800613
0.000000 0.271691 0.805025
0.000000 0.281373 0.814093
0.000000 0.290809 0.820221
0.000000 0.296814 0.826225
0.000000 0.306495 0.831986
0.000000 0.096569 0.522549
0.000000 0.099877 0.545833
0.000000 0.104412 0.568873
0.000000 0.108333 0.589216
0.000000 0.109804 0.610294
0.000000 0.116176 0.636275
0.000000 0.120834 0.656618
0.000000 0.125490 0.680637
0.000000 0.131863 0.690196
0.000000 0.138113 0.696569
0.000000 0.147549 0.704412
0.000000 0.155392 0.709804
0.000000 0.163235 0.717647
0.000000 0.171078 0.724020
0.000000 0.178922 0.727941
0.000000 0.184437 0.733456
0.000000 0.194608 0.743627
0.000000 0.203799 0.751348
0.000000 0.210294 0.755392
0.000000 0.219240 0.760784
0.000000 0.227451 0.768627
0.000000 0.233824 0.775000
0.000000 0.244363 0.781618
0.000000 0.249510 0.788235
0.000000 0.258333 0.794608
0.000000 0.268015 0.801348
0.000000 0.273039 0.806373
0.000000 0.281005 0.814338
0.000000 0.292647 0.822059
0.000000 0.296569 0.825980
0.000000 0.306127 0.831618
0.000000 0.313725 0.839216
0.000000 0.321569 0.847059
0.000000 0.102329 0.565441
0.000000 0.107720 0.588726
0.000000 0.110172 0.611765
0.000000 0.114093 0.632844
0.000000 0.121079 0.658089
0.000000 0.125490 0.679166
0.000000 0.129780 0.690196
0.000000 0.137623 0.695221
0.000000 0.144485 0.701348
0.000000 0.154167 0.710172
0.000000 0.161152 0.716421
0.000000 0.169607 0.722182
0.000000 0.178922 0.728309
0.000000 0.185049 0.734068
0.000000 0.192892 0.741544
0.000000 0.203922 0.749388
0.000000 0.208211 0.753309
0.000000 0.219853 0.761152
0.000000 0.227451 0.768627
0.000000 0.232108 0.773284
0.000000 0.241054 0.780760
0.000000 0.247427 0.788235
0.000000 0.256495 0.793382
0.000000 0.266177 0.799510
0.000000 0.271936 0.805270
0.000000 0.281618 0.814583
0.000000 0.290564 0.819976
0.000000 0.297059 0.826470
0.000000 0.306250 0.831741
0.000000 0.313725 0.839216
0.000000 0.318382 0.843872
0.000000 0.329780 0.851348
0.000000 0.337255 0.858824
0.000000 0.109804 0.611765
0.000000 0.115563 0.635049
0.000000 0.119853 0.653677
0.000000 0.125490 0.681618
0.000000 0.131618 0.690196
0.000000 0.137255 0.696324
0.000000 0.146569 0.703431
0.000000 0.155147 0.709804
0.000000 0.160784 0.716667
0.000000 0.169485 0.722427
0.000000 0.179167 0.728186
0.000000 0.184927 0.733946
0.000000 0.194363 0.743382
0.000000 0.202206 0.747672
0.000000 0.210049 0.755147
0.000000 0.217892 0.760784
0.000000 0.227451 0.768627
0.000000 0.233579 0.774755
0.000000 0.241422 0.780392
0.000000 0.249265 0.788235
0.000000 0.257108 0.794363
0.000000 0.266054 0.799387
0.000000 0.272794 0.806128
0.000000 0.281495 0.814828
0.000000 0.291177 0.820588
0.000000 0.296324 0.825735
0.000000 0.306617 0.832108
0.000000 0.313725 0.839216
0.000000 0.320343 0.845833
0.000000 0.330024 0.853186
0.000000 0.337255 0.858824
0.000000 0.343382 0.864951
0.000000 0.352941 0.870588
0.000000 0.117770 0.647672
0.000000 0.123407 0.672426
0.000000 0.129535 0.690196
0.000000 0.137378 0.695711
0.000000 0.144730 0.701593
0.000000 0.154412 0.709927
0.000000 0.160907 0.716912
0.000000 0.168872 0.721692
0.000000 0.176594 0.725735
0.000000 0.184437 0.733456
0.000000 0.192280 0.741299
0.000000 0.200613 0.745833
0.000000 0.207966 0.753064
0.000000 0.216176 0.760907
0.000000 0.227451 0.768627
0.000000 0.231618 0.772794
0.000000 0.241299 0.780515
0.000000 0.247182 0.788112
0.000000 0.255147 0.792280
0.000000 0.266422 0.799755
0.000000 0.270711 0.804045
0.000000 0.281863 0.815073
0.000000 0.290319 0.819731
0.000000 0.294363 0.823774
0.000000 0.303064 0.831496
0.000000 0.313725 0.839216
0.000000 0.318505 0.843995
0.000000 0.328186 0.851103
0.000000 0.337378 0.858947
0.000000 0.343627 0.865074
0.000000 0.353186 0.870833
0.000000 0.360907 0.878554
0.000000 0.368750 0.886275
0.000000 0.131373 0.690196
0.000000 0.137255 0.696079
0.000000 0.144853 0.701716
0.000000 0.154902 0.709804
0.000000 0.160784 0.717157
0.000000 0.169975 0.722917
0.000000 0.178431 0.727451
0.000000 0.183456 0.734436
0.000000 0.194117 0.743137
0.000000 0.201961 0.747059
0.000000 0.208579 0.754902
0.000000 0.217647 0.760784
0.000000 0.225980 0.767157
0.000000 0.231741 0.772917
0.000000 0.241422 0.780392
0.000000 0.247182 0.788235
0.000000 0.256863 0.794118
0.000000 0.266544 0.799877
0.000000 0.272304 0.805637
0.000000 0.280392 0.813725
0.000000 0.290196 0.819608
0.000000 0.296079 0.825490
0.000000 0.305147 0.832598
0.000000 0.312867 0.838358
0.000000 0.319608 0.845098
0.000000 0.328309 0.850980
0.000000 0.337255 0.858824
0.000000 0.343750 0.865319
0.000000 0.353431 0.871078
0.000000 0.360784 0.878431
0.000000 0.368872 0.886275
0.000000 0.378432 0.892157
0.000000 0.384314 0.896079
0.000000 0.144975 0.701838
0.000000 0.154657 0.709681
0.000000 0.160661 0.717402
0.000000 0.170098 0.723039
0.000000 0.179779 0.728922
0.000000 0.185539 0.734681
0.000000 0.195220 0.744240
0.000000 0.203799 0.748897
0.000000 0.207720 0.752941
0.000000 0.219363 0.760661
0.000000 0.227206 0.768382
0.000000 0.231863 0.773039
0.000000 0.243014 0.780392
0.000000 0.247427 0.788112
0.000000 0.258579 0.795833
0.000000 0.266667 0.800000
0.000000 0.272549 0.805883
0.000000 0.282108 0.815441
0.000000 0.290073 0.819485
0.000000 0.297671 0.827083
0.000000 0.305759 0.831373
0.000000 0.313602 0.839093
0.000000 0.321324 0.846814
0.000000 0.329289 0.850980
0.000000 0.337132 0.858701
0.000000 0.344853 0.866422
0.000000 0.353554 0.871201
0.000000 0.360661 0.878308
0.000000 0.368995 0.886152
0.000000 0.378677 0.892402
0.000000 0.384314 0.897916
0.000000 0.392034 0.901961
0.000000 0.403677 0.913480
0.000000 0.160784 0.715441
0.000000 0.170343 0.723284
0.000000 0.178186 0.727206
0.000000 0.182108 0.733333
0.000000 0.193382 0.742402
0.000000 0.201716 0.746814
0.000000 0.207108 0.752941
0.000000 0.216789 0.760784
0.000000 0.226470 0.767647
0.000000 0.232231 0.773407
0.000000 0.240931 0.780392
0.000000 0.247672 0.786029
0.000000 0.256618 0.793872
0.000000 0.264461 0.797794
0.000000 0.272304 0.805637
0.000000 0.280147 0.813480
0.000000 0.288235 0.817647
0.000000 0.295833 0.825245
0.000000 0.303676 0.831373
0.000000 0.313357 0.838848
0.000000 0.319363 0.844853
0.000000 0.328799 0.850980
0.000000 0.337255 0.858824
0.000000 0.342892 0.864461
0.000000 0.353921 0.871568
0.000000 0.360784 0.878431
0.000000 0.367157 0.884069
0.000000 0.376838 0.890564
0.000000 0.384314 0.895833
0.000000 0.390564 0.901961
0.000000 0.400245 0.910049
0.000000 0.406005 0.915809
0.000000 0.415686 0.921569
0.000000 0.180024 0.729044
0.000000 0.183946 0.733333
0.000000 0.195343 0.744363
0.000000 0.203187 0.748652
0.000000 0.207475 0.752941
0.000000 0.216667 0.760416
0.000000 0.226348 0.767524
0.000000 0.232108 0.773284
0.000000 0.241789 0.780024
0.000000 0.247917 0.787867
0.000000 0.257231 0.794485
0.000000 0.266299 0.799632
0.000000 0.270588 0.803922
0.000000 0.281618 0.814951
0.000000 0.289828 0.819240
0.000000 0.294241 0.823652
0.000000 0.305514 0.831373
0.000000 0.313357 0.838848
0.000000 0.318995 0.844485
0.000000 0.328677 0.850612
0.000000 0.336887 0.858456
0.000000 0.344118 0.865687
0.000000 0.353799 0.871446
0.000000 0.360416 0.878063
0.000000 0.368259 0.885907
0.000000 0.378922 0.892647
0.000000 0.383946 0.897671
0.000000 0.391789 0.901961
0.000000 0.400123 0.909926
0.000000 0.406250 0.916054
0.000000 0.415564 0.921814
0.000000 0.425245 0.929044
0.000000 0.431005 0.936887
0.000000 0.192157 0.741176
0.000000 0.201838 0.746936
0.000000 0.207598 0.752941
0.000000 0.217157 0.760784
0.000000 0.225000 0.766176
0.000000 0.230270 0.771446
0.000000 0.240686 0.780392
0.000000 0.247059 0.785784
0.000000 0.255392 0.792647
0.000000 0.264216 0.797549
0.000000 0.270588 0.803922
0.000000 0.279044 0.812378
0.000000 0.288726 0.818137
0.000000 0.294486 0.823897
0.000000 0.303431 0.831373
0.000000 0.311274 0.836765
0.000000 0.319118 0.844608
0.000000 0.326961 0.850980
0.000000 0.337255 0.858824
0.000000 0.342647 0.864216
0.000000 0.350490 0.868137
0.000000 0.360171 0.877818
0.000000 0.366176 0.883824
0.000000 0.375613 0.889338
0.000000 0.384314 0.895588
0.000000 0.391054 0.901961
0.000000 0.400735 0.910539
0.000000 0.405392 0.915196
0.000000 0.416176 0.922059
0.000000 0.425000 0.929412
0.000000 0.428922 0.934804
0.000000 0.438848 0.940809
0.000000 0.448529 0.949020
0.000000 0.207230 0.752941
0.000000 0.216912 0.760171
0.000000 0.226593 0.767769
0.000000 0.232353 0.773529
0.000000 0.242034 0.779902
0.000000 0.247059 0.787622
0.000000 0.254289 0.791544
0.000000 0.265442 0.799387
0.000000 0.269975 0.803309
0.000000 0.278676 0.812010
0.000000 0.288358 0.818382
0.000000 0.294731 0.824142
0.000000 0.304657 0.830760
0.000000 0.313112 0.838603
0.000000 0.319240 0.844730
0.000000 0.328799 0.850980
0.000000 0.336642 0.858211
0.000000 0.344363 0.865932
0.000000 0.352328 0.869975
0.000000 0.360171 0.877818
0.000000 0.367402 0.885049
0.000000 0.375858 0.889583
0.000000 0.383701 0.895343
0.000000 0.390932 0.901348
0.000000 0.400368 0.910171
0.000000 0.406740 0.916544
0.000000 0.415809 0.922304
0.000000 0.425490 0.928799
0.000000 0.430760 0.936642
0.000000 0.438603 0.940563
0.000000 0.449755 0.948407
0.000000 0.454289 0.955638
0.000000 0.462132 0.960171
0.000000 0.224755 0.765931
0.000000 0.230515 0.771691
0.000000 0.240196 0.780147
0.000000 0.248284 0.785907
0.000000 0.255637 0.792892
0.000000 0.265196 0.798529
0.000000 0.271814 0.805147
0.000000 0.279657 0.812990
0.000000 0.288726 0.818137
0.000000 0.295343 0.824755
0.000000 0.303186 0.831373
0.000000 0.311029 0.836520
0.000000 0.318873 0.844363
0.000000 0.327083 0.851348
0.000000 0.335539 0.857108
0.000000 0.342524 0.863971
0.000000 0.351471 0.869118
0.000000 0.360661 0.878308
0.000000 0.365931 0.883579
0.000000 0.377329 0.891054
0.000000 0.384314 0.895343
0.000000 0.390686 0.903186
0.000000 0.401226 0.911029
0.000000 0.405147 0.914951
0.000000 0.413971 0.922549
0.000000 0.423652 0.928309
0.000000 0.429412 0.934559
0.000000 0.439093 0.941054
0.000000 0.448284 0.949510
0.000000 0.454534 0.955270
0.000000 0.463971 0.962010
0.000000 0.471814 0.967157
0.000000 0.476961 0.973775
0.000000 0.241421 0.779534
0.000000 0.246201 0.786519
0.000000 0.254044 0.791299
0.000000 0.263481 0.797671
0.000000 0.270098 0.803432
0.000000 0.278921 0.812255
0.000000 0.288603 0.818750
0.000000 0.295221 0.824632
0.000000 0.304044 0.830515
0.000000 0.312867 0.838358
0.000000 0.316789 0.842279
0.000000 0.327696 0.850122
0.000000 0.336397 0.857966
0.000000 0.340686 0.862255
0.000000 0.352083 0.869730
0.000000 0.359926 0.877573
0.000000 0.365809 0.883456
0.000000 0.375491 0.889338
0.000000 0.383456 0.895833
0.000000 0.390931 0.901593
0.000000 0.399142 0.908946
0.000000 0.406985 0.916789
0.000000 0.414828 0.921569
0.000000 0.425735 0.928554
0.000000 0.430515 0.935539
0.000000 0.438358 0.940318
0.000000 0.446936 0.948162
0.000000 0.453554 0.954657
0.000000 0.462378 0.960417
0.000000 0.469730 0.967034
0.000000 0.477818 0.972794
0.000000 0.487500 0.981618
0.000000 0.494118 0.987377
0.000000 0.255883 0.793137
0.000000 0.263726 0.797058
0.000000 0.271568 0.804902
0.000000 0.277083 0.810417
0.000000 0.287255 0.816667
0.000000 0.295098 0.824510
0.000000 0.302206 0.830638
0.000000 0.310907 0.836397
0.000000 0.317647 0.843137
0.000000 0.327328 0.851838
0.000000 0.336029 0.857598
0.000000 0.342157 0.863725
0.000000 0.350000 0.867647
0.000000 0.357843 0.875490
0.000000 0.365686 0.883333
0.000000 0.373652 0.887378
0.000000 0.384314 0.895098
0.000000 0.389215 0.901961
0.000000 0.398774 0.908578
0.000000 0.404902 0.914706
0.000000 0.413726 0.922549
0.000000 0.423897 0.928799
0.000000 0.429657 0.934559
0.000000 0.439338 0.941299
0.000000 0.448039 0.949020
0.000000 0.452941 0.953922
0.000000 0.463726 0.961764
0.000000 0.470588 0.965686
0.000000 0.475980 0.973039
0.000000 0.485662 0.979780
0.000000 0.494363 0.985539
0.000000 0.501103 0.993137
0.000000 0.509804 0.996078
0.000000 0.270588 0.803922
0.000000 0.279167 0.812500
0.000000 0.288848 0.818505
0.000000 0.294118 0.823529
0.000000 0.300858 0.830270
0.000000 0.311519 0.837010
0.000000 0.316544 0.842034
0.000000 0.325490 0.849877
0.000000 0.335172 0.856740
0.000000 0.340931 0.862500
0.000000 0.350613 0.869363
0.000000 0.359681 0.877328
0.000000 0.366054 0.883701
0.000000 0.375368 0.889093
0.000000 0.383211 0.894118
0.000000 0.387255 0.900858
0.000000 0.398897 0.908701
0.000000 0.406740 0.916544
0.000000 0.413480 0.920466
0.000000 0.422426 0.928309
0.000000 0.428922 0.933701
0.000000 0.437500 0.940073
0.000000 0.447181 0.947917
0.000000 0.453799 0.954902
0.000000 0.462623 0.960662
0.000000 0.469485 0.967524
0.000000 0.477328 0.972549
0.000000 0.485172 0.979289
0.000000 0.493015 0.987132
0.000000 0.499755 0.991054
0.000000 0.508701 0.996078
0.000000 0.514706 0.996078
0.000000 0.520466 0.996078
0.000000 0.287010 0.816421
0.000000 0.294853 0.824264
0.000000 0.302451 0.831128
0.000000 0.310539 0.836029
0.000000 0.317892 0.843382
0.000000 0.326225 0.850980
0.000000 0.334068 0.855637
0.000000 0.339093 0.860662
0.000000 0.349755 0.867402
0.000000 0.357721 0.875368
0.000000 0.364216 0.881863
0.000000 0.373897 0.887623
0.000000 0.382843 0.894853
0.000000 0.389338 0.902329
0.000000 0.397549 0.907353
0.000000 0.404657 0.914460
0.000000 0.412500 0.921569
0.000000 0.424142 0.929289
0.000000 0.428186 0.934068
0.000000 0.436765 0.938726
0.000000 0.447794 0.949020
0.000000 0.451715 0.953676
0.000000 0.460785 0.958824
0.000000 0.469730 0.965441
0.000000 0.476226 0.973284
0.000000 0.485907 0.980025
0.000000 0.494853 0.985785
0.000000 0.501348 0.992892
0.000000 0.509804 0.996078
0.000000 0.514460 0.996078
